; generated by Slic3r Prusa Edition 1.41.2+ on 2019-02-02 at 11:53:57

; 

; external perimeters extrusion width = 0.45mm
; perimeters extrusion width = 0.45mm
; infill extrusion width = 0.45mm
; solid infill extrusion width = 0.45mm
; top infill extrusion width = 0.40mm
; first layer extrusion width = 0.42mm

M73 P0 R38
M73 Q0 S38
M201 X1000 Y1000 Z1000 E5000 ; sets maximum accelerations, mm/sec^2
M203 X200 Y200 Z12 E120 ; sets maximum feedrates, mm/sec
M204 P1250 R1250 T1250 ; sets acceleration (P, T) and retract acceleration (R), mm/sec^2
M205 X8.00 Y8.00 Z0.40 E1.50 ; sets the jerk limits, mm/sec
M205 S0 T0 ; sets the minimum extruding and travel feed rate, mm/sec
M107
M115 U3.5.0 ; tell printer latest fw version
M83  ; extruder relative mode
M104 S215 ; set extruder temp
M140 S60 ; set bed temp
M190 S60 ; wait for bed temp
M109 S215 ; wait for extruder temp
G28 W ; home all without mesh bed level
G80 ; mesh bed leveling
G1 Y-3.0 F1000.0 ; go outside print area
G92 E0.0
G1 X60.0 E9.0  F1000.0 ; intro line
M73 Q0 S38
M73 P0 R38
G1 X100.0 E12.5  F1000.0 ; intro line
G92 E0.0
M221 S95
M900 K30; Filament gcode
G21 ; set units to millimeters
G90 ; use absolute coordinates
M83 ; use relative distances for extrusion
;BEFORE_LAYER_CHANGE
G92 E0.0
;0.2


G1 E-0.80000 F2100.00000
G1 Z0.600 F10800.000
;AFTER_LAYER_CHANGE
;0.2
G1 X97.450 Y100.585
G1 Z0.200
G1 E0.80000 F2100.00000
M204 S1000
G1 F1200
G1 X98.576 Y99.808 E0.04290
G1 X99.465 Y99.387 E0.03085
G1 X100.954 Y98.955 E0.04862
G1 X102.489 Y98.812 E0.04834
G1 X147.551 Y98.813 E1.41289
G1 X149.135 Y98.974 E0.04992
G1 X150.135 Y99.240 E0.03245
G1 X151.469 Y99.835 E0.04580
G1 X152.277 Y100.366 E0.03030
G1 X153.167 Y101.181 E0.03786
G1 X153.925 Y102.214 E0.04019
G1 X154.412 Y103.289 E0.03700
G1 X154.656 Y104.414 E0.03607
G1 X154.648 Y105.665 E0.03922
G1 X154.345 Y106.904 E0.04001
G1 X154.043 Y107.574 E0.02304
G1 X153.435 Y108.507 E0.03492
G1 X152.942 Y109.055 E0.02311
G1 X152.081 Y109.780 E0.03530
G1 X151.370 Y110.225 E0.02629
G1 X150.549 Y110.610 E0.02844
G1 X149.747 Y110.882 E0.02655
G1 X148.342 Y111.147 E0.04484
G1 X102.471 Y111.189 E1.43825
G1 X100.883 Y111.031 E0.05004
G1 X99.958 Y110.795 E0.02993
G1 X99.072 Y110.446 E0.02985
G1 X97.790 Y109.687 E0.04670
G1 X96.865 Y108.857 E0.03897
G1 X96.159 Y107.928 E0.03658
G1 X95.778 Y107.201 E0.02575
G1 X95.420 Y106.078 E0.03697
G1 X95.312 Y104.958 E0.03527
G1 X95.469 Y103.706 E0.03958
G1 X95.902 Y102.531 E0.03926
G1 X96.563 Y101.498 E0.03847
G1 X97.408 Y100.628 E0.03800
; PURGING FINISHED
G1 F8640
G1 X98.576 Y99.808 E-0.32955
G1 X99.465 Y99.387 E-0.22719
G1 X100.310 Y99.142 E-0.20326
G1 E-0.04000 F2100.00000
G1 Z0.800 F10800.000
G1 X147.041 Y104.794
G1 Z0.200
G1 E0.80000 F2100.00000
G1 F1200
G1 X147.145 Y104.336 E0.01474
G1 X147.311 Y103.990 E0.01202
G1 X147.526 Y103.697 E0.01138
G1 X147.789 Y103.449 E0.01134
G1 X148.096 Y103.253 E0.01142
G1 X148.438 Y103.114 E0.01159
G1 X148.808 Y103.042 E0.01182
G1 X149.207 Y103.042 E0.01250
G1 X149.665 Y103.146 E0.01474
G1 X150.011 Y103.312 E0.01202
G1 X150.304 Y103.527 E0.01138
G1 X150.552 Y103.790 E0.01134
G1 X150.748 Y104.096 E0.01142
G1 X150.887 Y104.439 E0.01159
G1 X150.959 Y104.809 E0.01182
G1 X150.959 Y105.208 E0.01250
G1 X150.855 Y105.666 E0.01474
G1 X150.689 Y106.012 E0.01202
G1 X150.474 Y106.305 E0.01138
G1 X150.211 Y106.553 E0.01134
G1 X149.904 Y106.749 E0.01142
G1 X149.562 Y106.888 E0.01159
G1 X149.192 Y106.960 E0.01182
G1 X148.793 Y106.960 E0.01250
G1 X148.335 Y106.856 E0.01474
G1 X147.989 Y106.690 E0.01202
G1 X147.696 Y106.475 E0.01138
G1 X147.448 Y106.212 E0.01134
G1 X147.252 Y105.906 E0.01142
G1 X147.113 Y105.563 E0.01159
G1 X147.041 Y105.193 E0.01182
G1 X147.041 Y104.854 E0.01062
G1 X147.418 Y104.854 F10800.000
G1 F1200
G1 X147.504 Y104.461 E0.01262
G1 X147.636 Y104.184 E0.00960
G1 X147.809 Y103.948 E0.00919
G1 X148.022 Y103.748 E0.00916
G1 X148.270 Y103.589 E0.00922
G1 X148.546 Y103.477 E0.00935
G1 X148.845 Y103.419 E0.00955
G1 X149.164 Y103.419 E0.01002
G1 X149.540 Y103.505 E0.01209
G1 X149.816 Y103.637 E0.00960
G1 X150.053 Y103.810 E0.00919
G1 X150.253 Y104.023 E0.00916
G1 X150.412 Y104.271 E0.00922
G1 X150.524 Y104.547 E0.00935
G1 X150.582 Y104.846 E0.00955
G1 X150.582 Y105.165 E0.01002
G1 X150.496 Y105.541 E0.01209
G1 X150.364 Y105.817 E0.00960
G1 X150.191 Y106.054 E0.00919
G1 X149.978 Y106.254 E0.00916
G1 X149.730 Y106.413 E0.00922
G1 X149.454 Y106.525 E0.00935
G1 X149.155 Y106.583 E0.00955
G1 X148.836 Y106.583 E0.01002
G1 X148.460 Y106.497 E0.01209
G1 X148.184 Y106.365 E0.00960
G1 X147.947 Y106.192 E0.00919
G1 X147.747 Y105.979 E0.00916
G1 X147.588 Y105.732 E0.00922
G1 X147.476 Y105.455 E0.00935
G1 X147.418 Y105.156 E0.00955
G1 X147.418 Y104.914 E0.00759
G1 X147.795 Y104.879 F10800.000
G1 F1200
G1 X147.862 Y104.586 E0.00944
G1 X147.961 Y104.379 E0.00718
G1 X148.093 Y104.199 E0.00700
G1 X148.255 Y104.046 E0.00699
G1 X148.444 Y103.925 E0.00702
G1 X148.654 Y103.840 E0.00711
G1 X148.881 Y103.796 E0.00727
G1 X149.122 Y103.796 E0.00754
G1 X149.415 Y103.863 E0.00944
G1 X149.622 Y103.962 E0.00718
G1 X149.802 Y104.094 E0.00700
G1 X149.955 Y104.256 E0.00699
G1 X150.076 Y104.445 E0.00702
G1 X150.161 Y104.655 E0.00711
G1 X150.205 Y104.882 E0.00727
G1 X150.205 Y105.123 E0.00754
G1 X150.138 Y105.416 E0.00944
G1 X150.039 Y105.623 E0.00718
G1 X149.907 Y105.803 E0.00700
G1 X149.745 Y105.956 E0.00699
G1 X149.556 Y106.077 E0.00702
G1 X149.346 Y106.162 E0.00711
G1 X149.119 Y106.206 E0.00727
G1 X148.878 Y106.206 E0.00754
G1 X148.585 Y106.139 E0.00944
G1 X148.378 Y106.040 E0.00718
G1 X148.198 Y105.908 E0.00700
G1 X148.045 Y105.746 E0.00699
G1 X147.924 Y105.557 E0.00702
G1 X147.839 Y105.347 E0.00711
G1 X147.795 Y105.120 E0.00727
G1 X147.795 Y104.939 E0.00566
G1 X147.554 Y104.699 F10800.000
G1 F8640
G1 X147.862 Y104.586 E-0.08305
G1 X147.961 Y104.379 E-0.05291
G1 X148.093 Y104.199 E-0.05157
G1 X148.255 Y104.046 E-0.05144
G1 X148.444 Y103.925 E-0.05170
G1 X148.654 Y103.840 E-0.05239
G1 X148.881 Y103.796 E-0.05354
G1 X149.122 Y103.796 E-0.05552
G1 X149.415 Y103.863 E-0.06948
G1 X149.622 Y103.962 E-0.05290
G1 X149.802 Y104.094 E-0.05157
G1 X149.955 Y104.256 E-0.05144
G1 X150.076 Y104.445 E-0.05170
G1 X150.126 Y104.568 E-0.03077
G1 E-0.04000 F2100.00000
G1 Z0.800 F10800.000
G1 X138.959 Y105.208
G1 Z0.200
G1 E0.80000 F2100.00000
G1 F1200
G1 X138.855 Y105.666 E0.01474
G1 X138.689 Y106.012 E0.01202
G1 X138.474 Y106.305 E0.01138
G1 X138.211 Y106.553 E0.01134
G1 X137.904 Y106.749 E0.01142
G1 X137.562 Y106.888 E0.01159
G1 X137.192 Y106.960 E0.01182
G1 X136.793 Y106.960 E0.01250
G1 X136.335 Y106.856 E0.01474
G1 X135.989 Y106.690 E0.01202
G1 X135.696 Y106.475 E0.01138
G1 X135.448 Y106.212 E0.01134
G1 X135.252 Y105.906 E0.01142
G1 X135.113 Y105.563 E0.01159
G1 X135.041 Y105.193 E0.01182
G1 X135.041 Y104.794 E0.01250
G1 X135.145 Y104.336 E0.01474
G1 X135.311 Y103.990 E0.01202
G1 X135.526 Y103.697 E0.01138
G1 X135.789 Y103.449 E0.01134
G1 X136.096 Y103.253 E0.01142
G1 X136.438 Y103.114 E0.01159
G1 X136.808 Y103.042 E0.01182
G1 X137.207 Y103.042 E0.01250
G1 X137.665 Y103.146 E0.01474
G1 X138.011 Y103.312 E0.01202
G1 X138.304 Y103.527 E0.01138
G1 X138.552 Y103.790 E0.01134
G1 X138.748 Y104.096 E0.01142
G1 X138.887 Y104.439 E0.01159
G1 X138.959 Y104.809 E0.01182
G1 X138.959 Y105.148 E0.01062
G1 X138.582 Y105.148 F10800.000
G1 F1200
G1 X138.496 Y105.541 E0.01262
G1 X138.364 Y105.817 E0.00960
G1 X138.191 Y106.054 E0.00919
G1 X137.978 Y106.254 E0.00916
G1 X137.730 Y106.413 E0.00922
G1 X137.454 Y106.525 E0.00935
G1 X137.155 Y106.583 E0.00955
G1 X136.836 Y106.583 E0.01002
G1 X136.460 Y106.497 E0.01209
G1 X136.184 Y106.365 E0.00960
G1 X135.947 Y106.192 E0.00919
G1 X135.747 Y105.979 E0.00916
G1 X135.588 Y105.732 E0.00922
G1 X135.476 Y105.455 E0.00935
G1 X135.418 Y105.156 E0.00955
G1 X135.418 Y104.837 E0.01002
G1 X135.504 Y104.461 E0.01209
G1 X135.636 Y104.184 E0.00960
G1 X135.809 Y103.948 E0.00919
G1 X136.022 Y103.748 E0.00916
G1 X136.270 Y103.589 E0.00922
G1 X136.546 Y103.477 E0.00935
G1 X136.845 Y103.419 E0.00955
G1 X137.164 Y103.419 E0.01002
G1 X137.540 Y103.505 E0.01209
G1 X137.816 Y103.637 E0.00960
G1 X138.053 Y103.810 E0.00919
G1 X138.253 Y104.023 E0.00916
G1 X138.412 Y104.271 E0.00922
G1 X138.524 Y104.547 E0.00935
G1 X138.582 Y104.846 E0.00955
G1 X138.582 Y105.088 E0.00759
G1 X138.205 Y105.123 F10800.000
G1 F1200
G1 X138.138 Y105.416 E0.00944
G1 X138.039 Y105.623 E0.00718
G1 X137.907 Y105.803 E0.00700
G1 X137.745 Y105.956 E0.00699
G1 X137.556 Y106.077 E0.00702
G1 X137.346 Y106.162 E0.00711
G1 X137.119 Y106.206 E0.00727
G1 X136.878 Y106.206 E0.00754
G1 X136.585 Y106.139 E0.00944
G1 X136.378 Y106.040 E0.00718
G1 X136.198 Y105.908 E0.00700
G1 X136.045 Y105.746 E0.00699
G1 X135.924 Y105.557 E0.00702
G1 X135.839 Y105.347 E0.00711
G1 X135.795 Y105.120 E0.00727
G1 X135.795 Y104.879 E0.00754
G1 X135.862 Y104.586 E0.00944
G1 X135.961 Y104.379 E0.00718
G1 X136.093 Y104.199 E0.00700
G1 X136.255 Y104.046 E0.00699
G1 X136.444 Y103.925 E0.00702
G1 X136.654 Y103.840 E0.00711
G1 X136.881 Y103.796 E0.00727
G1 X137.122 Y103.796 E0.00754
G1 X137.415 Y103.863 E0.00944
G1 X137.622 Y103.962 E0.00718
G1 X137.802 Y104.094 E0.00700
G1 X137.955 Y104.256 E0.00699
G1 X138.076 Y104.445 E0.00702
G1 X138.161 Y104.655 E0.00711
G1 X138.205 Y104.882 E0.00727
G1 X138.205 Y105.063 E0.00566
G1 X138.446 Y105.303 F10800.000
G1 F8640
G1 X138.138 Y105.416 E-0.08305
G1 X138.039 Y105.623 E-0.05290
G1 X137.907 Y105.803 E-0.05157
G1 X137.745 Y105.956 E-0.05144
G1 X137.556 Y106.077 E-0.05170
G1 X137.346 Y106.162 E-0.05239
G1 X137.119 Y106.206 E-0.05354
G1 X136.878 Y106.206 E-0.05552
G1 X136.585 Y106.139 E-0.06948
G1 X136.378 Y106.040 E-0.05290
G1 X136.198 Y105.908 E-0.05157
G1 X136.045 Y105.746 E-0.05144
G1 X135.924 Y105.557 E-0.05170
G1 X135.874 Y105.434 E-0.03078
G1 E-0.04000 F2100.00000
G1 Z0.800 F10800.000
G1 X114.959 Y105.208
G1 Z0.200
G1 E0.80000 F2100.00000
G1 F1200
G1 X114.855 Y105.666 E0.01474
G1 X114.689 Y106.012 E0.01202
G1 X114.474 Y106.305 E0.01138
G1 X114.211 Y106.553 E0.01134
G1 X113.904 Y106.749 E0.01142
G1 X113.562 Y106.888 E0.01159
G1 X113.192 Y106.960 E0.01182
G1 X112.793 Y106.960 E0.01250
G1 X112.335 Y106.856 E0.01474
G1 X111.989 Y106.690 E0.01202
G1 X111.696 Y106.475 E0.01138
G1 X111.448 Y106.212 E0.01134
G1 X111.252 Y105.906 E0.01142
G1 X111.113 Y105.563 E0.01159
G1 X111.041 Y105.193 E0.01183
G1 X111.041 Y104.794 E0.01250
G1 X111.145 Y104.336 E0.01474
G1 X111.311 Y103.990 E0.01202
G1 X111.526 Y103.697 E0.01138
G1 X111.789 Y103.449 E0.01134
G1 X112.096 Y103.253 E0.01142
G1 X112.438 Y103.114 E0.01159
G1 X112.808 Y103.042 E0.01182
G1 X113.207 Y103.042 E0.01250
G1 X113.665 Y103.146 E0.01474
G1 X114.011 Y103.312 E0.01202
G1 X114.304 Y103.527 E0.01138
G1 X114.552 Y103.790 E0.01134
G1 X114.748 Y104.096 E0.01142
G1 X114.887 Y104.439 E0.01159
G1 X114.959 Y104.809 E0.01182
G1 X114.959 Y105.148 E0.01062
G1 X114.582 Y105.148 F10800.000
G1 F1200
G1 X114.496 Y105.541 E0.01262
G1 X114.364 Y105.817 E0.00960
G1 X114.191 Y106.054 E0.00919
G1 X113.978 Y106.254 E0.00916
G1 X113.730 Y106.413 E0.00922
G1 X113.454 Y106.525 E0.00935
G1 X113.155 Y106.583 E0.00955
G1 X112.836 Y106.583 E0.01002
G1 X112.460 Y106.497 E0.01209
G1 X112.184 Y106.365 E0.00960
G1 X111.947 Y106.192 E0.00919
G1 X111.747 Y105.979 E0.00916
G1 X111.588 Y105.732 E0.00922
G1 X111.476 Y105.455 E0.00935
G1 X111.418 Y105.156 E0.00955
G1 X111.418 Y104.837 E0.01002
G1 X111.504 Y104.461 E0.01209
G1 X111.636 Y104.185 E0.00960
G1 X111.809 Y103.948 E0.00919
G1 X112.022 Y103.748 E0.00916
G1 X112.270 Y103.589 E0.00922
G1 X112.546 Y103.477 E0.00935
G1 X112.845 Y103.419 E0.00955
G1 X113.164 Y103.419 E0.01002
G1 X113.540 Y103.505 E0.01209
G1 X113.816 Y103.637 E0.00960
G1 X114.053 Y103.810 E0.00919
G1 X114.253 Y104.023 E0.00916
G1 X114.412 Y104.271 E0.00922
G1 X114.524 Y104.547 E0.00935
G1 X114.582 Y104.846 E0.00955
G1 X114.582 Y105.088 E0.00759
G1 X114.205 Y105.123 F10800.000
G1 F1200
G1 X114.138 Y105.416 E0.00944
G1 X114.039 Y105.623 E0.00718
G1 X113.907 Y105.803 E0.00700
G1 X113.745 Y105.956 E0.00699
G1 X113.556 Y106.077 E0.00702
G1 X113.346 Y106.162 E0.00711
G1 X113.119 Y106.206 E0.00727
G1 X112.878 Y106.206 E0.00754
G1 X112.585 Y106.139 E0.00944
G1 X112.378 Y106.040 E0.00718
G1 X112.198 Y105.908 E0.00700
G1 X112.045 Y105.746 E0.00699
G1 X111.924 Y105.557 E0.00702
G1 X111.839 Y105.347 E0.00711
G1 X111.795 Y105.120 E0.00727
G1 X111.795 Y104.879 E0.00754
G1 X111.862 Y104.586 E0.00944
G1 X111.961 Y104.379 E0.00718
G1 X112.093 Y104.199 E0.00700
G1 X112.255 Y104.046 E0.00699
G1 X112.444 Y103.925 E0.00702
G1 X112.654 Y103.840 E0.00711
G1 X112.881 Y103.796 E0.00727
G1 X113.122 Y103.796 E0.00754
G1 X113.415 Y103.863 E0.00944
G1 X113.622 Y103.962 E0.00718
G1 X113.802 Y104.094 E0.00700
G1 X113.955 Y104.256 E0.00699
G1 X114.076 Y104.445 E0.00702
G1 X114.161 Y104.655 E0.00711
G1 X114.205 Y104.882 E0.00727
G1 X114.205 Y105.063 E0.00566
G1 X114.446 Y105.303 F10800.000
G1 F8640
G1 X114.138 Y105.416 E-0.08305
G1 X114.039 Y105.623 E-0.05291
G1 X113.907 Y105.803 E-0.05157
G1 X113.745 Y105.956 E-0.05144
G1 X113.556 Y106.077 E-0.05170
G1 X113.346 Y106.162 E-0.05239
G1 X113.119 Y106.206 E-0.05354
G1 X112.878 Y106.206 E-0.05552
G1 X112.585 Y106.139 E-0.06949
G1 X112.378 Y106.040 E-0.05290
G1 X112.198 Y105.908 E-0.05157
G1 X112.045 Y105.746 E-0.05144
G1 X111.924 Y105.557 E-0.05170
G1 X111.874 Y105.434 E-0.03078
G1 E-0.04000 F2100.00000
G1 Z0.800 F10800.000
G1 X102.959 Y105.208
G1 Z0.200
G1 E0.80000 F2100.00000
G1 F1200
G1 X102.855 Y105.666 E0.01474
G1 X102.689 Y106.012 E0.01202
G1 X102.474 Y106.305 E0.01138
G1 X102.211 Y106.553 E0.01134
G1 X101.904 Y106.749 E0.01142
G1 X101.562 Y106.888 E0.01159
G1 X101.192 Y106.960 E0.01182
G1 X100.793 Y106.960 E0.01250
G1 X100.335 Y106.856 E0.01474
G1 X99.989 Y106.690 E0.01202
G1 X99.696 Y106.475 E0.01138
G1 X99.448 Y106.212 E0.01134
G1 X99.252 Y105.906 E0.01142
G1 X99.113 Y105.563 E0.01159
G1 X99.041 Y105.193 E0.01183
G1 X99.041 Y104.794 E0.01250
G1 X99.145 Y104.336 E0.01474
G1 X99.311 Y103.990 E0.01202
G1 X99.526 Y103.697 E0.01138
G1 X99.789 Y103.449 E0.01134
G1 X100.096 Y103.253 E0.01142
G1 X100.438 Y103.114 E0.01159
G1 X100.808 Y103.042 E0.01182
G1 X101.207 Y103.042 E0.01250
G1 X101.665 Y103.146 E0.01474
G1 X102.011 Y103.312 E0.01202
G1 X102.304 Y103.527 E0.01138
G1 X102.552 Y103.790 E0.01134
G1 X102.748 Y104.096 E0.01142
G1 X102.887 Y104.439 E0.01159
G1 X102.959 Y104.809 E0.01182
G1 X102.959 Y105.148 E0.01062
G1 X102.582 Y105.148 F10800.000
G1 F1200
G1 X102.496 Y105.541 E0.01262
G1 X102.364 Y105.817 E0.00960
G1 X102.191 Y106.054 E0.00919
G1 X101.978 Y106.254 E0.00916
G1 X101.730 Y106.413 E0.00922
G1 X101.454 Y106.525 E0.00935
G1 X101.155 Y106.583 E0.00955
G1 X100.836 Y106.583 E0.01002
G1 X100.460 Y106.497 E0.01209
G1 X100.184 Y106.365 E0.00960
G1 X99.947 Y106.192 E0.00919
G1 X99.747 Y105.979 E0.00916
G1 X99.588 Y105.732 E0.00922
G1 X99.476 Y105.455 E0.00935
G1 X99.418 Y105.156 E0.00955
G1 X99.418 Y104.837 E0.01002
G1 X99.504 Y104.461 E0.01209
G1 X99.636 Y104.185 E0.00960
G1 X99.809 Y103.948 E0.00919
G1 X100.022 Y103.748 E0.00916
G1 X100.270 Y103.589 E0.00922
G1 X100.546 Y103.477 E0.00935
G1 X100.845 Y103.419 E0.00955
G1 X101.164 Y103.419 E0.01002
G1 X101.540 Y103.505 E0.01209
G1 X101.816 Y103.637 E0.00960
G1 X102.053 Y103.810 E0.00919
G1 X102.253 Y104.023 E0.00916
G1 X102.412 Y104.271 E0.00922
G1 X102.524 Y104.547 E0.00935
G1 X102.582 Y104.846 E0.00955
G1 X102.582 Y105.088 E0.00759
G1 X102.205 Y105.123 F10800.000
G1 F1200
G1 X102.138 Y105.416 E0.00944
G1 X102.039 Y105.623 E0.00718
G1 X101.907 Y105.803 E0.00700
G1 X101.745 Y105.956 E0.00699
G1 X101.556 Y106.077 E0.00702
G1 X101.346 Y106.162 E0.00711
G1 X101.119 Y106.206 E0.00727
G1 X100.878 Y106.206 E0.00754
G1 X100.585 Y106.139 E0.00944
G1 X100.378 Y106.040 E0.00718
G1 X100.198 Y105.908 E0.00700
G1 X100.045 Y105.746 E0.00699
G1 X99.924 Y105.557 E0.00702
G1 X99.839 Y105.347 E0.00711
G1 X99.795 Y105.120 E0.00727
G1 X99.795 Y104.879 E0.00754
G1 X99.862 Y104.586 E0.00944
G1 X99.961 Y104.379 E0.00718
G1 X100.093 Y104.199 E0.00700
G1 X100.255 Y104.046 E0.00698
G1 X100.444 Y103.925 E0.00702
