; generated by Slic3r Prusa Edition 1.41.3+ on 2019-03-06 at 22:16:10

; 

; external perimeters extrusion width = 0.45mm
; perimeters extrusion width = 0.45mm
; infill extrusion width = 0.45mm
; solid infill extrusion width = 0.45mm
; top infill extrusion width = 0.40mm
; support material extrusion width = 0.35mm
; first layer extrusion width = 0.42mm

M73 P0 R27
M73 Q0 S27
M201 X1000 Y1000 Z1000 E5000 ; sets maximum accelerations, mm/sec^2
M203 X200 Y200 Z12 E120 ; sets maximum feedrates, mm/sec
M204 P1250 R1250 T1250 ; sets acceleration (P, T) and retract acceleration (R), mm/sec^2
M205 X8.00 Y8.00 Z0.40 E1.50 ; sets the jerk limits, mm/sec
M205 S0 T0 ; sets the minimum extruding and travel feed rate, mm/sec
M107
M115 U3.5.0 ; tell printer latest fw version
M83  ; extruder relative mode
M104 S215 ; set extruder temp
M140 S60 ; set bed temp
M190 S60 ; wait for bed temp
M109 S215 ; wait for extruder temp
G28 W ; home all without mesh bed level
G80 ; mesh bed leveling
G1 Y-3.0 F1000.0 ; go outside print area
G92 E0.0
G1 X60.0 E9.0  F1000.0 ; intro line
M73 Q0 S27
M73 P0 R27
G1 X100.0 E12.5  F1000.0 ; intro line
G92 E0.0
M221 S95
M900 K30; Filament gcode
G21 ; set units to millimeters
G90 ; use absolute coordinates
M83 ; use relative distances for extrusion
;BEFORE_LAYER_CHANGE
G92 E0.0
;0.2


G1 E-0.80000 F2100.00000
G1 Z0.600 F10800.000
;AFTER_LAYER_CHANGE
;0.2
G1 X115.643 Y70.816
G1 Z0.200
G1 E0.80000 F2100.00000
M204 S1000
G1 F1200
G1 X115.978 Y70.357 E0.01783
G1 X116.418 Y70.002 E0.01771
G1 X116.937 Y69.770 E0.01783
G1 X117.498 Y69.679 E0.01783
G1 X154.566 Y69.679 E1.16224
G1 X155.369 Y69.833 E0.02563
G1 X156.059 Y70.270 E0.02563
G1 X156.539 Y70.928 E0.02552
G1 X156.746 Y71.719 E0.02563
G1 X156.729 Y101.673 E0.93920
G1 X156.532 Y102.321 E0.02123
G1 X147.231 Y121.310 E0.66299
G1 X146.900 Y121.764 E0.01760
G1 X146.464 Y122.118 E0.01760
G1 X145.953 Y122.350 E0.01760
G1 X145.400 Y122.444 E0.01760
G1 X126.783 Y122.445 E0.58371
G1 X126.256 Y122.374 E0.01669
G1 X125.758 Y122.175 E0.01680
G1 X125.240 Y121.779 E0.02044
G1 X124.861 Y121.249 E0.02044
G1 X115.594 Y102.323 E0.66073
G1 X115.415 Y101.791 E0.01760
G1 X115.374 Y71.852 E0.93870
G1 X115.444 Y71.317 E0.01692
G1 X115.621 Y70.872 E0.01504
; PURGING FINISHED
G1 F8640
G1 X115.978 Y70.357 E-0.14473
G1 X116.418 Y70.002 E-0.13044
G1 X116.937 Y69.770 E-0.13128
G1 X117.498 Y69.679 E-0.13128
G1 X118.461 Y69.679 E-0.22227
G1 E-0.04000 F2100.00000
G1 Z0.800 F10800.000
G1 X118.149 Y72.454
G1 Z0.200
G1 E0.80000 F2100.00000
G1 F1200
G1 X153.975 Y72.454 E1.12329
G1 X153.975 Y100.780 E0.88814
G1 X144.725 Y100.780 E0.29003
G1 X144.725 Y119.670 E0.59228
G1 X127.399 Y119.670 E0.54324
G1 X127.399 Y100.780 E0.59228
G1 X118.149 Y100.780 E0.29003
G1 X118.149 Y72.514 E0.88626
G1 F8640
G1 X121.441 Y72.509 E-0.76000
G1 E-0.04000 F2100.00000
G1 Z0.800 F10800.000
G1 X145.102 Y101.157
G1 Z0.200
G1 E0.80000 F2100.00000
G1 F1200
G1 X145.102 Y120.047 E0.59228
G1 X127.022 Y120.047 E0.56689
G1 X127.022 Y101.157 E0.59228
G1 X117.772 Y101.157 E0.29003
G1 X117.772 Y72.077 E0.91178
G1 X154.352 Y72.077 E1.14694
G1 X154.352 Y101.157 E0.91178
G1 X145.162 Y101.157 E0.28815
G1 X144.737 Y101.320 F10800.000
G1 F8640
G1 X145.152 Y104.448 E-0.76000
G1 E-0.04000 F2100.00000
G1 Z0.800 F10800.000
G1 X144.612 Y118.207
G1 Z0.200
G1 E0.80000 F2100.00000
G1 F1200
G1 X127.682 Y101.277 E0.75436
G1 X127.682 Y101.812 E0.01688
G1 X144.442 Y118.573 E0.74680
G1 X144.442 Y119.109 E0.01688
G1 X127.682 Y102.348 E0.74680
G1 X127.682 Y102.884 E0.01688
G1 X144.185 Y119.387 E0.73534
G1 X143.649 Y119.387 E0.01688
G1 X127.682 Y103.420 E0.71146
G1 X127.682 Y103.956 E0.01688
G1 X143.113 Y119.387 E0.68759
G1 X142.578 Y119.387 E0.01688
G1 X127.682 Y104.492 E0.66371
G1 X127.682 Y105.028 E0.01688
G1 X142.042 Y119.387 E0.63983
G1 X141.506 Y119.387 E0.01688
G1 X127.682 Y105.564 E0.61595
G1 X127.682 Y106.099 E0.01688
G1 X140.970 Y119.387 E0.59208
G1 X140.434 Y119.387 E0.01688
G1 X127.682 Y106.635 E0.56820
G1 X127.682 Y107.171 E0.01688
G1 X139.898 Y119.387 E0.54432
G1 X139.362 Y119.387 E0.01688
G1 X127.682 Y107.707 E0.52044
G1 X127.682 Y108.243 E0.01688
G1 X138.826 Y119.387 E0.49657
G1 X138.291 Y119.387 E0.01688
G1 X127.682 Y108.779 E0.47269
G1 X127.682 Y109.315 E0.01688
G1 X137.755 Y119.387 E0.44881
G1 X137.219 Y119.387 E0.01688
G1 X127.682 Y109.851 E0.42493
G1 X127.682 Y110.386 E0.01688
G1 X136.683 Y119.387 E0.40106
G1 X136.147 Y119.387 E0.01688
G1 X127.682 Y110.922 E0.37718
G1 X127.682 Y111.458 E0.01688
G1 X135.611 Y119.387 E0.35330
G1 X135.075 Y119.387 E0.01688
G1 X127.682 Y111.994 E0.32942
G1 X127.682 Y112.530 E0.01688
G1 X134.539 Y119.387 E0.30555
G1 X134.004 Y119.387 E0.01688
G1 X127.682 Y113.066 E0.28167
G1 X127.682 Y113.602 E0.01688
G1 X133.468 Y119.387 E0.25779
G1 X132.932 Y119.387 E0.01688
G1 X127.682 Y114.137 E0.23392
G1 X127.682 Y114.673 E0.01688
G1 X132.396 Y119.387 E0.21004
G1 X131.860 Y119.387 E0.01688
G1 X127.682 Y115.209 E0.18616
G1 X127.682 Y115.745 E0.01688
G1 X131.324 Y119.387 E0.16228
G1 X130.788 Y119.387 E0.01688
G1 X127.682 Y116.281 E0.13841
G1 X127.682 Y116.817 E0.01688
G1 X130.253 Y119.387 E0.11453
G1 X129.717 Y119.387 E0.01688
G1 X127.682 Y117.353 E0.09065
G1 X127.682 Y117.889 E0.01688
G1 X129.181 Y119.387 E0.06677
G1 X128.645 Y119.387 E0.01688
G1 X127.682 Y118.424 E0.04290
G1 X127.682 Y118.960 E0.01688
G1 X128.279 Y119.557 E0.02658
G1 F8640
G1 X127.682 Y118.960 E-0.19479
G1 X127.682 Y118.424 E-0.12373
G1 X128.645 Y119.387 E-0.31437
G1 X129.181 Y119.387 E-0.12373
G1 X129.170 Y119.377 E-0.00337
G1 E-0.04000 F2100.00000
G1 Z0.800 F10800.000
G1 X118.262 Y99.895
G1 Z0.200
G1 E0.80000 F2100.00000
G1 F1200
G1 X118.865 Y100.497 E0.02683
G1 X119.401 Y100.497 E0.01688
G1 X118.432 Y99.529 E0.04315
G1 X118.432 Y98.993 E0.01688
G1 X119.936 Y100.497 E0.06703
G1 X120.472 Y100.497 E0.01688
G1 X118.432 Y98.457 E0.09091
G1 X118.432 Y97.921 E0.01688
G1 X121.008 Y100.497 E0.11478
G1 X121.544 Y100.497 E0.01688
G1 X118.432 Y97.385 E0.13866
G1 X118.432 Y96.849 E0.01688
G1 X122.080 Y100.497 E0.16254
G1 X122.616 Y100.497 E0.01688
G1 X118.432 Y96.314 E0.18641
G1 X118.432 Y95.778 E0.01688
G1 X123.152 Y100.497 E0.21029
G1 X123.688 Y100.497 E0.01688
G1 X118.432 Y95.242 E0.23417
G1 X118.432 Y94.706 E0.01688
G1 X124.223 Y100.497 E0.25805
G1 X124.759 Y100.497 E0.01688
G1 X118.432 Y94.170 E0.28192
G1 X118.432 Y93.634 E0.01688
G1 X125.295 Y100.497 E0.30580
G1 X125.831 Y100.497 E0.01688
G1 X118.432 Y93.098 E0.32968
G1 X118.432 Y92.562 E0.01688
G1 X126.367 Y100.497 E0.35356
G1 X126.903 Y100.497 E0.01688
G1 X118.432 Y92.027 E0.37743
M73 Q3 S26
G1 X118.432 Y91.491 E0.01688
G1 X144.442 Y117.501 E1.15896
M73 P4 R25
G1 X144.442 Y116.965 E0.01688
G1 X118.432 Y90.955 E1.15896
G1 X118.432 Y90.419 E0.01688
G1 X144.442 Y116.429 E1.15896
G1 X144.442 Y115.893 E0.01688
G1 X118.432 Y89.883 E1.15896
G1 X118.432 Y89.347 E0.01688
G1 X144.442 Y115.357 E1.15896
G1 X144.442 Y114.822 E0.01688
G1 X118.432 Y88.811 E1.15896
G1 X118.432 Y88.275 E0.01688
G1 X144.442 Y114.286 E1.15896
G1 X144.442 Y113.750 E0.01688
G1 X118.432 Y87.740 E1.15896
G1 X118.432 Y87.204 E0.01688
G1 X144.442 Y113.214 E1.15896
G1 X144.442 Y112.678 E0.01688
G1 X118.432 Y86.668 E1.15896
G1 X118.432 Y86.132 E0.01688
G1 X144.442 Y112.142 E1.15896
G1 X144.442 Y111.606 E0.01688
G1 X118.432 Y85.596 E1.15896
G1 X118.432 Y85.060 E0.01688
G1 X144.442 Y111.070 E1.15896
G1 X144.442 Y110.535 E0.01688
G1 X118.432 Y84.524 E1.15896
G1 X118.432 Y83.988 E0.01688
G1 X144.442 Y109.999 E1.15896
G1 X144.442 Y109.463 E0.01688
G1 X118.432 Y83.453 E1.15896
G1 X118.432 Y82.917 E0.01688
G1 X144.442 Y108.927 E1.15896
G1 X144.442 Y108.391 E0.01688
G1 X118.432 Y82.381 E1.15896
G1 X118.432 Y81.845 E0.01688
G1 X144.442 Y107.855 E1.15896
G1 X144.442 Y107.319 E0.01688
G1 X118.432 Y81.309 E1.15896
G1 X118.432 Y80.773 E0.01688
G1 X144.442 Y106.784 E1.15896
G1 X144.442 Y106.248 E0.01688
G1 X118.432 Y80.237 E1.15896
G1 X118.432 Y79.701 E0.01688
G1 X144.442 Y105.712 E1.15896
G1 X144.442 Y105.176 E0.01688
G1 X118.432 Y79.166 E1.15896
G1 X118.432 Y78.630 E0.01688
G1 X144.442 Y104.640 E1.15896
G1 X144.442 Y104.104 E0.01688
G1 X118.432 Y78.094 E1.15896
G1 X118.432 Y77.558 E0.01688
G1 X144.442 Y103.568 E1.15896
G1 X144.442 Y103.032 E0.01688
G1 X118.432 Y77.022 E1.15896
G1 X118.432 Y76.486 E0.01688
G1 X144.442 Y102.497 E1.15896
G1 X144.442 Y101.961 E0.01688
G1 X118.432 Y75.950 E1.15896
G1 X118.432 Y75.415 E0.01688
G1 X144.442 Y101.425 E1.15896
G1 X144.442 Y100.889 E0.01688
G1 X118.432 Y74.879 E1.15896
M73 Q7 S25
G1 X118.432 Y74.343 E0.01688
G1 X144.587 Y100.497 E1.16539
M73 P7 R24
G1 X145.122 Y100.497 E0.01688
G1 X118.432 Y73.807 E1.18926
G1 X118.432 Y73.271 E0.01688
G1 X145.658 Y100.497 E1.21314
G1 X146.194 Y100.497 E0.01688
G1 X118.434 Y72.737 E1.23694
G1 X118.970 Y72.737 E0.01688
G1 X146.730 Y100.497 E1.23694
G1 X147.266 Y100.497 E0.01688
G1 X119.506 Y72.737 E1.23694
G1 X120.042 Y72.737 E0.01688
G1 X147.802 Y100.497 E1.23694
G1 X148.338 Y100.497 E0.01688
G1 X120.577 Y72.737 E1.23694
G1 X121.113 Y72.737 E0.01688
G1 X148.874 Y100.497 E1.23694
G1 X149.409 Y100.497 E0.01688
G1 X121.649 Y72.737 E1.23694
G1 X122.185 Y72.737 E0.01688
G1 X149.945 Y100.497 E1.23694
G1 X150.481 Y100.497 E0.01688
G1 X122.721 Y72.737 E1.23694
G1 X123.257 Y72.737 E0.01688
G1 X151.017 Y100.497 E1.23694
G1 X151.553 Y100.497 E0.01688
G1 X123.793 Y72.737 E1.23694
G1 X124.329 Y72.737 E0.01688
G1 X152.089 Y100.497 E1.23694
G1 X152.625 Y100.497 E0.01688
G1 X124.864 Y72.737 E1.23694
G1 X125.400 Y72.737 E0.01688
G1 X153.161 Y100.497 E1.23694
G1 X153.692 Y100.493 E0.01676
G1 X125.936 Y72.737 E1.23676
G1 X126.472 Y72.737 E0.01688
G1 X153.692 Y99.957 E1.21289
G1 X153.692 Y99.421 E0.01688
G1 X127.008 Y72.737 E1.18901
G1 X127.544 Y72.737 E0.01688
G1 X153.692 Y98.886 E1.16513
G1 X153.692 Y98.350 E0.01688
G1 X128.080 Y72.737 E1.14125
G1 X128.616 Y72.737 E0.01688
G1 X153.692 Y97.814 E1.11738
G1 X153.692 Y97.278 E0.01688
G1 X129.151 Y72.737 E1.09350
G1 X129.687 Y72.737 E0.01688
G1 X153.692 Y96.742 E1.06962
G1 X153.692 Y96.206 E0.01688
G1 X130.223 Y72.737 E1.04575
G1 X130.759 Y72.737 E0.01688
G1 X153.692 Y95.670 E1.02187
G1 X153.692 Y95.134 E0.01688
G1 X131.295 Y72.737 E0.99799
G1 X131.831 Y72.737 E0.01688
G1 X153.692 Y94.599 E0.97411
G1 X153.692 Y94.063 E0.01688
G1 X132.367 Y72.737 E0.95024
G1 X132.902 Y72.737 E0.01688
G1 X153.692 Y93.527 E0.92636
G1 X153.692 Y92.991 E0.01688
G1 X133.438 Y72.737 E0.90248
G1 X133.974 Y72.737 E0.01688
G1 X153.692 Y92.455 E0.87860
M73 Q11 S24
G1 X153.692 Y91.919 E0.01688
G1 X134.510 Y72.737 E0.85473
M73 P11 R23
G1 X135.046 Y72.737 E0.01688
G1 X153.692 Y91.383 E0.83085
G1 X153.692 Y90.847 E0.01688
G1 X135.582 Y72.737 E0.80697
G1 X136.118 Y72.737 E0.01688
G1 X153.692 Y90.312 E0.78309
G1 X153.692 Y89.776 E0.01688
G1 X136.654 Y72.737 E0.75922
G1 X137.189 Y72.737 E0.01688
G1 X153.692 Y89.240 E0.73534
G1 X153.692 Y88.704 E0.01688
G1 X137.725 Y72.737 E0.71146
G1 X138.261 Y72.737 E0.01688
G1 X153.692 Y88.168 E0.68758
G1 X153.692 Y87.632 E0.01688
G1 X138.797 Y72.737 E0.66371
G1 X139.333 Y72.737 E0.01688
G1 X153.692 Y87.096 E0.63983
G1 X153.692 Y86.561 E0.01688
G1 X139.869 Y72.737 E0.61595
G1 X140.405 Y72.737 E0.01688
G1 X153.692 Y86.025 E0.59207
G1 X153.692 Y85.489 E0.01688
G1 X140.941 Y72.737 E0.56820
G1 X141.476 Y72.737 E0.01688
G1 X153.692 Y84.953 E0.54432
G1 X153.692 Y84.417 E0.01688
G1 X142.012 Y72.737 E0.52044
G1 X142.548 Y72.737 E0.01688
G1 X153.692 Y83.881 E0.49657
G1 X153.692 Y83.345 E0.01688
G1 X143.084 Y72.737 E0.47269
G1 X143.620 Y72.737 E0.01688
G1 X153.692 Y82.809 E0.44881
G1 X153.692 Y82.274 E0.01688
G1 X144.156 Y72.737 E0.42493
G1 X144.692 Y72.737 E0.01688
G1 X153.692 Y81.738 E0.40106
G1 X153.692 Y81.202 E0.01688
G1 X145.228 Y72.737 E0.37718
G1 X145.763 Y72.737 E0.01688
G1 X153.692 Y80.666 E0.35330
G1 X153.692 Y80.130 E0.01688
G1 X146.299 Y72.737 E0.32942
G1 X146.835 Y72.737 E0.01688
G1 X153.692 Y79.594 E0.30555
G1 X153.692 Y79.058 E0.01688
G1 X147.371 Y72.737 E0.28167
G1 X147.907 Y72.737 E0.01688
G1 X153.692 Y78.522 E0.25779
G1 X153.692 Y77.987 E0.01688
G1 X148.443 Y72.737 E0.23391
G1 X148.979 Y72.737 E0.01688
G1 X153.692 Y77.451 E0.21004
G1 X153.692 Y76.915 E0.01688
G1 X149.515 Y72.737 E0.18616
G1 X150.050 Y72.737 E0.01688
G1 X153.692 Y76.379 E0.16228
G1 X153.692 Y75.843 E0.01688
G1 X150.586 Y72.737 E0.13840
G1 X151.122 Y72.737 E0.01688
G1 X153.692 Y75.307 E0.11453
G1 X153.692 Y74.771 E0.01688
G1 X151.658 Y72.737 E0.09065
G1 X152.194 Y72.737 E0.01688
G1 X153.692 Y74.235 E0.06677
G1 X153.692 Y73.700 E0.01688
G1 X152.730 Y72.737 E0.04289
G1 X153.266 Y72.737 E0.01688
G1 X153.862 Y73.333 E0.02658
M106 S255
;BEFORE_LAYER_CHANGE
G92 E0.0
;0.35


G1 F8640
G1 X153.266 Y72.737 E-0.19478
G1 X152.730 Y72.737 E-0.12373
G1 X153.692 Y73.700 E-0.31436
G1 X153.692 Y74.235 E-0.12373
G1 X153.682 Y74.225 E-0.00339
G1 E-0.04000 F2100.00000
G1 Z0.800 F10800.000
;AFTER_LAYER_CHANGE
;0.35
M104 S210 ; set temperature
G1 X156.539 Y70.928
G1 Z0.350
G1 E0.80000 F2100.00000
G1 F3000
G1 X156.746 Y71.719 E0.01977
G1 X156.729 Y101.673 E0.72444
G1 X156.532 Y102.321 E0.01637
G1 X147.231 Y121.310 E0.51140
G1 X146.900 Y121.764 E0.01357
G1 X146.464 Y122.118 E0.01357
G1 X145.953 Y122.350 E0.01357
G1 X145.400 Y122.444 E0.01357
G1 X126.783 Y122.445 E0.45024
G1 X126.256 Y122.374 E0.01287
G1 X125.758 Y122.175 E0.01296
G1 X125.240 Y121.779 E0.01576
G1 X124.861 Y121.249 E0.01576
G1 X115.594 Y102.323 E0.50965
G1 X115.415 Y101.791 E0.01357
G1 X115.374 Y71.852 E0.72406
G1 X115.444 Y71.317 E0.01305
G1 X115.643 Y70.816 E0.01305
G1 X115.978 Y70.357 E0.01375
G1 X116.418 Y70.002 E0.01366
G1 X116.937 Y69.770 E0.01375
G1 X117.498 Y69.679 E0.01375
G1 X154.566 Y69.679 E0.89648
G1 X155.369 Y69.833 E0.01977
G1 X156.059 Y70.270 E0.01977
G1 X156.504 Y70.879 E0.01823
; PURGING FINISHED
G1 F8640
G1 X156.746 Y71.719 E-0.20172
G1 X156.744 Y74.137 E-0.55828
G1 E-0.04000 F2100.00000
G1 Z0.950 F10800.000
G1 X153.920 Y72.510
G1 Z0.350
G1 E0.80000 F2100.00000
M204 S800
G1 F2700
G1 X153.920 Y100.724 E0.73515
G1 X144.670 Y100.724 E0.24102
G1 X144.670 Y119.614 E0.49219
G1 X127.455 Y119.614 E0.44853
G1 X127.455 Y100.724 E0.49219
G1 X118.205 Y100.724 E0.24102
G1 X118.205 Y72.510 E0.73515
G1 X153.860 Y72.510 E0.92900
M204 S1000
G1 F8640
G1 X153.867 Y75.801 E-0.76000
G1 E-0.04000 F2100.00000
G1 Z0.950 F10800.000
G1 X145.087 Y101.142
G1 Z0.350
G1 E0.80000 F2100.00000
M204 S800
G1 X145.087 Y120.032 E0.49219
G1 X127.037 Y120.032 E0.47031
G1 X127.037 Y101.142 E0.49219
G1 X117.787 Y101.142 E0.24102
G1 X117.787 Y72.092 E0.75692
G1 X154.337 Y72.092 E0.95234
G1 X154.337 Y101.142 E0.75692
G1 X145.147 Y101.142 E0.23945
M204 S1000
G1 X144.722 Y101.305 F10800.000
G1 F8640
G1 X145.137 Y104.433 E-0.76000
G1 E-0.04000 F2100.00000
G1 Z0.950 F10800.000
G1 X153.794 Y99.873
G1 Z0.350
G1 E0.80000 F2100.00000
M204 S1250
G1 F12000
G1 X153.256 Y100.411 E0.01995
G1 X152.662 Y100.411 E0.01560
G1 X153.606 Y99.466 E0.03504
G1 X153.606 Y98.872 E0.01560
G1 X152.067 Y100.411 E0.05709
G1 X151.472 Y100.411 E0.01560
G1 X153.606 Y98.277 E0.07915
G1 X153.606 Y97.682 E0.01560
G1 X150.877 Y100.411 E0.10121
G1 X150.283 Y100.411 E0.01560
G1 X153.606 Y97.087 E0.12327
G1 X153.606 Y96.493 E0.01560
G1 X149.688 Y100.411 E0.14532
G1 X149.093 Y100.411 E0.01560
G1 X153.606 Y95.898 E0.16738
G1 X153.606 Y95.303 E0.01560
G1 X148.498 Y100.411 E0.18944
G1 X147.904 Y100.411 E0.01560
G1 X153.606 Y94.708 E0.21150
G1 X153.606 Y94.114 E0.01560
G1 X147.309 Y100.411 E0.23355
G1 X146.714 Y100.411 E0.01560
G1 X153.606 Y93.519 E0.25561
G1 X153.606 Y92.924 E0.01560
G1 X146.120 Y100.411 E0.27767
G1 X145.525 Y100.411 E0.01560
G1 X153.606 Y92.330 E0.29972
G1 X153.606 Y91.735 E0.01560
G1 X144.930 Y100.411 E0.32178
G1 X144.356 Y100.411 E0.01505
G1 X144.356 Y100.985 E0.01505
G1 X127.768 Y117.573 E0.61521
G1 X127.768 Y118.167 E0.01560
G1 X144.356 Y101.580 E0.61521
G1 X144.356 Y102.174 E0.01560
G1 X127.768 Y118.762 E0.61521
G1 X127.768 Y119.301 E0.01413
G1 X127.824 Y119.301 E0.00146
G1 X144.356 Y102.769 E0.61314
G1 X144.356 Y103.364 E0.01560
G1 X128.419 Y119.301 E0.59109
G1 X129.014 Y119.301 E0.01560
G1 X144.356 Y103.958 E0.56903
G1 X144.356 Y104.553 E0.01560
