; generated by Slic3r Prusa Edition 1.41.3+ on 2019-03-06 at 20:55:20

; 

; external perimeters extrusion width = 0.45mm
; perimeters extrusion width = 0.45mm
; infill extrusion width = 0.45mm
; solid infill extrusion width = 0.45mm
; top infill extrusion width = 0.40mm
; support material extrusion width = 0.35mm
; first layer extrusion width = 0.42mm

M73 P0 R36
M73 Q0 S36
M201 X1000 Y1000 Z1000 E5000 ; sets maximum accelerations, mm/sec^2
M203 X200 Y200 Z12 E120 ; sets maximum feedrates, mm/sec
M204 P1250 R1250 T1250 ; sets acceleration (P, T) and retract acceleration (R), mm/sec^2
M205 X8.00 Y8.00 Z0.40 E1.50 ; sets the jerk limits, mm/sec
M205 S0 T0 ; sets the minimum extruding and travel feed rate, mm/sec
M107
M115 U3.5.0 ; tell printer latest fw version
M83  ; extruder relative mode
M104 S215 ; set extruder temp
M140 S60 ; set bed temp
M190 S60 ; wait for bed temp
M109 S215 ; wait for extruder temp
G28 W ; home all without mesh bed level
G80 ; mesh bed leveling
G1 Y-3.0 F1000.0 ; go outside print area
G92 E0.0
G1 X60.0 E9.0  F1000.0 ; intro line
M73 Q0 S36
M73 P0 R36
G1 X100.0 E12.5  F1000.0 ; intro line
G92 E0.0
M221 S95
M900 K30; Filament gcode
G21 ; set units to millimeters
G90 ; use absolute coordinates
M83 ; use relative distances for extrusion
;BEFORE_LAYER_CHANGE
G92 E0.0
;0.2


G1 E-0.80000 F2100.00000
G1 Z0.600 F10800.000
;AFTER_LAYER_CHANGE
;0.2
G1 X112.994 Y57.520
G1 Z0.200
G1 E0.80000 F2100.00000
M204 S1000
G1 F1200
G1 X113.617 Y57.423 E0.01976
G1 X121.247 Y57.423 E0.23925
G1 X122.003 Y57.557 E0.02405
G1 X146.867 Y66.844 E0.83220
G1 X147.532 Y67.254 E0.02451
G1 X148.011 Y67.871 E0.02451
G1 X148.194 Y68.356 E0.01623
G1 X148.259 Y68.866 E0.01612
G1 X148.258 Y105.175 E1.13846
G1 X148.168 Y105.748 E0.01817
G1 X147.929 Y106.279 E0.01828
G1 X147.558 Y106.729 E0.01828
G1 X147.081 Y107.065 E0.01828
G1 X146.633 Y107.239 E0.01510
G1 X146.156 Y107.311 E0.01510
G1 X140.791 Y107.313 E0.16823
G1 X131.686 Y107.142 E0.28555
G1 X131.159 Y107.064 E0.01669
G1 X110.436 Y97.658 E0.71357
G1 X109.859 Y97.257 E0.02202
G1 X109.438 Y96.695 E0.02202
G1 X109.254 Y96.207 E0.01635
G1 X109.190 Y95.693 E0.01623
G1 X109.190 Y61.752 E1.06421
G1 X109.283 Y61.129 E0.01976
G1 X109.509 Y60.623 E0.01737
G1 X109.854 Y60.189 E0.01737
G1 X112.224 Y57.943 E0.10238
G1 X112.942 Y57.549 E0.02566
; PURGING FINISHED
G1 F8640
G1 X113.617 Y57.423 E-0.15859
G1 X116.221 Y57.423 E-0.60141
G1 E-0.04000 F2100.00000
G1 Z0.800 F10800.000
G1 X111.379 Y61.759
G1 Z0.200
G1 E0.80000 F2100.00000
G1 F1200
G1 X111.379 Y95.683 E1.06366
G1 X112.133 Y95.683 E0.02365
G1 X112.133 Y61.929 E1.05834
G1 X112.887 Y61.929 E0.02365
G1 X112.887 Y95.683 E1.05834
G1 X113.641 Y95.683 E0.02365
G1 X113.641 Y59.611 E1.13102
G1 X114.396 Y59.611 E0.02365
G1 X114.396 Y95.683 E1.13102
G1 X115.150 Y95.683 E0.02365
G1 X115.150 Y91.867 E0.11966
G1 X115.006 Y91.782 E0.00525
G1 X114.784 Y91.543 E0.01022
G1 X114.645 Y91.253 E0.01008
G1 X114.604 Y90.979 E0.00867
G1 X114.604 Y75.076 E0.49864
G1 X114.606 Y74.914 E0.00507
G1 X114.644 Y74.674 E0.00762
G1 X114.786 Y74.377 E0.01032
G1 X115.006 Y74.144 E0.01004
G1 X115.150 Y74.060 E0.00523
G1 X115.150 Y59.611 E0.45302
G1 X115.904 Y59.611 E0.02365
G1 X115.904 Y73.928 E0.44889
G1 X116.658 Y73.928 E0.02365
G1 X116.658 Y59.611 E0.44889
G1 X117.412 Y59.611 E0.02365
G1 X117.412 Y73.928 E0.44889
G1 X118.166 Y73.928 E0.02365
G1 X118.166 Y59.611 E0.44889
G1 X118.920 Y59.611 E0.02365
G1 X118.920 Y73.928 E0.44889
G1 X119.675 Y73.928 E0.02365
G1 X119.675 Y59.611 E0.44889
G1 X120.429 Y59.611 E0.02365
G1 X120.429 Y73.928 E0.44889
G1 X121.183 Y73.928 E0.02365
G1 X121.183 Y59.611 E0.44889
G1 X121.247 Y59.611 E0.00202
G1 X121.247 Y61.929 E0.07267
G1 X121.937 Y61.929 E0.02163
G1 X121.937 Y73.928 E0.37621
G1 X122.691 Y73.928 E0.02365
G1 X122.691 Y61.929 E0.37621
G1 X123.445 Y61.929 E0.02365
G1 X123.445 Y73.928 E0.37621
G1 X124.200 Y73.928 E0.02365
G1 X124.200 Y61.929 E0.37621
G1 X124.954 Y61.929 E0.02365
G1 X124.954 Y73.928 E0.37621
G1 X125.708 Y73.928 E0.02365
G1 X125.708 Y61.929 E0.37621
G1 X125.883 Y61.929 E0.00549
G1 X125.883 Y68.882 E0.21802
G1 X126.462 Y68.882 E0.01816
G1 X126.462 Y73.928 E0.15819
G1 X127.216 Y73.928 E0.02365
G1 X127.216 Y68.882 E0.15819
G1 X127.970 Y68.882 E0.02365
G1 X127.970 Y73.928 E0.15819
G1 X128.725 Y73.928 E0.02365
G1 X128.725 Y68.882 E0.15819
G1 X129.479 Y68.882 E0.02365
G1 X129.479 Y73.928 E0.15819
G1 X130.233 Y73.928 E0.02365
G1 X130.233 Y68.882 E0.15819
G1 X130.987 Y68.882 E0.02365
G1 X130.987 Y73.928 E0.15819
G1 X131.741 Y73.928 E0.02365
G1 X131.741 Y68.882 E0.15819
G1 X132.495 Y68.882 E0.02365
G1 X132.495 Y73.928 E0.15819
G1 X133.249 Y73.928 E0.02365
G1 X133.249 Y68.882 E0.15819
G1 X134.004 Y68.882 E0.02365
G1 X134.004 Y73.928 E0.15819
G1 X134.758 Y73.928 E0.02365
G1 X134.758 Y68.882 E0.15819
G1 X135.512 Y68.882 E0.02365
G1 X135.512 Y73.928 E0.15819
G1 X136.266 Y73.928 E0.02365
G1 X136.266 Y68.882 E0.15819
G1 X137.020 Y68.882 E0.02365
G1 X137.020 Y73.928 E0.15819
G1 X137.774 Y73.928 E0.02365
G1 X137.774 Y68.882 E0.15819
G1 X138.529 Y68.882 E0.02365
G1 X138.529 Y73.928 E0.15819
G1 X139.283 Y73.928 E0.02365
G1 X139.283 Y68.882 E0.15819
G1 X140.037 Y68.882 E0.02365
G1 X140.037 Y73.928 E0.15819
G1 X140.658 Y73.928 E0.01947
G1 X140.791 Y73.946 E0.00422
G1 X140.791 Y68.882 E0.15878
G1 X141.545 Y68.882 E0.02365
G1 X141.545 Y104.954 E1.13102
G1 X142.299 Y104.954 E0.02365
G1 X142.299 Y68.882 E1.13102
G1 X143.054 Y68.882 E0.02365
G1 X143.054 Y104.954 E1.13102
G1 X143.808 Y104.954 E0.02365
G1 X143.808 Y68.882 E1.13102
G1 X144.562 Y68.882 E0.02365
G1 X144.562 Y104.954 E1.13102
G1 X145.316 Y104.954 E0.02365
G1 X145.316 Y68.882 E1.13102
G1 X146.070 Y68.882 E0.02365
G1 X146.070 Y105.124 E1.13634
G1 X140.791 Y105.124 F10800.000
G1 F1200
G1 X140.791 Y91.980 E0.41212
G1 X140.658 Y91.999 E0.00423
G1 X140.037 Y91.999 E0.01946
G1 X140.037 Y104.954 E0.40622
G1 X139.283 Y104.954 E0.02365
G1 X139.283 Y91.999 E0.40622
G1 X138.529 Y91.999 E0.02365
G1 X138.529 Y104.954 E0.40622
G1 X137.774 Y104.954 E0.02365
G1 X137.774 Y91.999 E0.40622
G1 X137.020 Y91.999 E0.02365
G1 X137.020 Y104.954 E0.40622
G1 X136.266 Y104.954 E0.02365
G1 X136.266 Y91.999 E0.40622
G1 X135.512 Y91.999 E0.02365
G1 X135.512 Y104.954 E0.40622
G1 X134.758 Y104.954 E0.02365
G1 X134.758 Y91.999 E0.40622
G1 X134.004 Y91.999 E0.02365
G1 X134.004 Y104.954 E0.40622
G1 X133.249 Y104.954 E0.02365
G1 X133.249 Y91.999 E0.40622
G1 X132.495 Y91.999 E0.02365
G1 X132.495 Y104.954 E0.40622
M73 Q3 S35
M73 P2 R35
G1 X131.741 Y104.954 E0.02365
G1 X131.741 Y91.999 E0.40622
G1 X130.987 Y91.999 E0.02365
G1 X130.987 Y95.683 E0.11553
G1 X130.233 Y95.683 E0.02365
G1 X130.233 Y91.999 E0.11553
G1 X129.479 Y91.999 E0.02365
G1 X129.479 Y95.683 E0.11553
G1 X128.725 Y95.683 E0.02365
G1 X128.725 Y91.999 E0.11553
G1 X127.970 Y91.999 E0.02365
G1 X127.970 Y95.683 E0.11553
G1 X127.216 Y95.683 E0.02365
G1 X127.216 Y91.999 E0.11553
G1 X126.462 Y91.999 E0.02365
G1 X126.462 Y95.683 E0.11553
G1 X125.708 Y95.683 E0.02365
G1 X125.708 Y91.999 E0.11553
G1 X124.954 Y91.999 E0.02365
G1 X124.954 Y95.683 E0.11553
G1 X124.200 Y95.683 E0.02365
G1 X124.200 Y91.999 E0.11553
G1 X123.445 Y91.999 E0.02365
G1 X123.445 Y95.683 E0.11553
G1 X122.691 Y95.683 E0.02365
G1 X122.691 Y91.999 E0.11553
G1 X121.937 Y91.999 E0.02365
G1 X121.937 Y95.683 E0.11553
G1 X121.183 Y95.683 E0.02365
G1 X121.183 Y91.999 E0.11553
G1 X120.429 Y91.999 E0.02365
G1 X120.429 Y95.683 E0.11553
G1 X119.675 Y95.683 E0.02365
G1 X119.675 Y91.999 E0.11553
G1 X118.920 Y91.999 E0.02365
G1 X118.920 Y95.683 E0.11553
G1 X118.166 Y95.683 E0.02365
G1 X118.166 Y91.999 E0.11553
G1 X117.412 Y91.999 E0.02365
G1 X117.412 Y95.683 E0.11553
G1 X116.658 Y95.683 E0.02365
G1 X116.658 Y91.999 E0.11553
G1 X115.904 Y91.999 E0.02365
G1 X115.904 Y95.853 E0.12085
G1 F8640
G1 X115.904 Y92.561 E-0.76000
G1 E-0.04000 F2100.00000
G1 Z0.800 F10800.000
G1 X115.685 Y90.998
G1 Z0.200
G1 E0.80000 F2100.00000
G1 F1200
G1 X115.627 Y90.987 E0.00187
G1 X115.605 Y90.917 E0.00229
G1 X115.605 Y75.010 E0.49876
G1 X115.625 Y74.941 E0.00227
G1 X140.594 Y74.928 E0.78290
G1 X140.662 Y74.947 E0.00221
G1 X140.676 Y75.012 E0.00209
G1 X140.676 Y90.914 E0.49861
G1 X140.654 Y90.987 E0.00238
G1 X115.745 Y90.998 E0.78099
G1 X115.401 Y91.295 F10800.000
G1 F1200
G1 X115.310 Y91.202 E0.00407
G1 X115.250 Y91.088 E0.00406
G1 X115.227 Y90.947 E0.00447
G1 X115.227 Y74.980 E0.50063
G1 X115.251 Y74.835 E0.00461
G1 X115.309 Y74.723 E0.00396
G1 X115.400 Y74.632 E0.00403
G1 X115.514 Y74.574 E0.00401
G1 X115.656 Y74.551 E0.00450
G1 X140.624 Y74.551 E0.78287
G1 X140.769 Y74.575 E0.00458
G1 X140.881 Y74.632 E0.00394
G1 X140.971 Y74.722 E0.00399
G1 X141.029 Y74.837 E0.00404
G1 X141.053 Y74.981 E0.00458
G1 X141.053 Y90.946 E0.50057
G1 X141.029 Y91.088 E0.00451
G1 X140.970 Y91.203 E0.00407
G1 X140.880 Y91.295 E0.00404
G1 X140.767 Y91.353 E0.00398
G1 X140.625 Y91.375 E0.00450
G1 X115.656 Y91.375 E0.78289
G1 X115.514 Y91.353 E0.00450
G1 X115.454 Y91.322 E0.00210
G1 X115.415 Y91.166 F10800.000
G1 F8640
G1 X115.310 Y91.202 E-0.04334
G1 X115.250 Y91.088 E-0.02991
G1 X115.227 Y90.947 E-0.03294
G1 X115.227 Y88.115 E-0.65381
G1 E-0.04000 F2100.00000
G1 Z0.800 F10800.000
G1 X116.484 Y90.885
G1 Z0.200
G1 E0.80000 F2100.00000
G1 F1200
G1 X115.887 Y90.288 E0.02660
G1 X115.887 Y89.752 E0.01691
G1 X116.850 Y90.715 E0.04294
G1 X117.386 Y90.714 E0.01690
G1 X115.887 Y89.215 E0.06684
G1 X115.887 Y88.679 E0.01691
G1 X117.922 Y90.714 E0.09074
G1 X118.458 Y90.714 E0.01690
G1 X115.887 Y88.143 E0.11464
G1 X115.887 Y87.607 E0.01691
G1 X118.994 Y90.714 E0.13854
G1 X119.530 Y90.714 E0.01690
G1 X115.887 Y87.070 E0.16244
G1 X115.887 Y86.534 E0.01691
G1 X120.066 Y90.713 E0.18634
G1 X120.602 Y90.713 E0.01690
G1 X115.887 Y85.998 E0.21024
G1 X115.887 Y85.462 E0.01691
G1 X121.138 Y90.713 E0.23414
G1 X121.674 Y90.713 E0.01690
G1 X115.887 Y84.925 E0.25804
G1 X115.887 Y84.389 E0.01691
G1 X122.210 Y90.712 E0.28195
G1 X122.746 Y90.712 E0.01690
G1 X115.887 Y83.853 E0.30585
G1 X115.887 Y83.317 E0.01691
G1 X123.282 Y90.712 E0.32975
G1 X123.818 Y90.712 E0.01690
G1 X115.887 Y82.780 E0.35365
G1 X115.887 Y82.244 E0.01691
G1 X124.354 Y90.711 E0.37755
G1 X124.890 Y90.711 E0.01690
G1 X115.887 Y81.708 E0.40145
G1 X115.887 Y81.172 E0.01691
G1 X125.426 Y90.711 E0.42535
G1 X125.963 Y90.711 E0.01690
G1 X115.887 Y80.635 E0.44925
G1 X115.887 Y80.099 E0.01691
G1 X126.499 Y90.710 E0.47315
G1 X127.035 Y90.710 E0.01690
G1 X115.887 Y79.563 E0.49705
G1 X115.887 Y79.027 E0.01691
G1 X127.571 Y90.710 E0.52095
G1 X128.107 Y90.710 E0.01690
G1 X115.887 Y78.490 E0.54485
G1 X115.887 Y77.954 E0.01691
G1 X128.643 Y90.709 E0.56875
G1 X129.179 Y90.709 E0.01690
G1 X115.887 Y77.418 E0.59265
G1 X115.887 Y76.882 E0.01691
G1 X129.715 Y90.709 E0.61656
G1 X130.251 Y90.709 E0.01690
G1 X115.887 Y76.345 E0.64046
G1 X115.887 Y75.809 E0.01691
G1 X130.787 Y90.708 E0.66436
G1 X131.323 Y90.708 E0.01690
G1 X115.887 Y75.273 E0.68826
G1 X115.887 Y75.223 E0.00156
G1 X116.374 Y75.223 E0.01534
G1 X131.859 Y90.708 E0.69046
G1 X132.395 Y90.708 E0.01690
G1 X116.910 Y75.223 E0.69045
G1 X117.446 Y75.223 E0.01691
G1 X132.931 Y90.707 E0.69045
G1 X133.467 Y90.707 E0.01690
G1 X117.982 Y75.223 E0.69044
G1 X118.519 Y75.223 E0.01691
G1 X134.003 Y90.707 E0.69043
G1 X134.539 Y90.707 E0.01690
G1 X119.055 Y75.223 E0.69042
G1 X119.591 Y75.223 E0.01691
G1 X135.075 Y90.707 E0.69041
G1 X135.611 Y90.706 E0.01690
G1 X120.127 Y75.223 E0.69041
G1 X120.663 Y75.223 E0.01691
G1 X136.147 Y90.706 E0.69040
G1 X136.683 Y90.706 E0.01690
G1 X121.200 Y75.223 E0.69039
G1 X121.736 Y75.223 E0.01691
G1 X137.219 Y90.706 E0.69038
G1 X137.755 Y90.705 E0.01690
G1 X122.272 Y75.222 E0.69038
G1 X122.808 Y75.222 E0.01691
G1 X138.291 Y90.705 E0.69037
G1 X138.827 Y90.705 E0.01690
G1 X123.344 Y75.222 E0.69036
G1 X123.881 Y75.222 E0.01691
G1 X139.363 Y90.705 E0.69035
G1 X139.899 Y90.704 E0.01690
G1 X124.417 Y75.222 E0.69035
G1 X124.953 Y75.222 E0.01691
G1 X140.393 Y90.663 E0.68849
G1 X140.393 Y90.126 E0.01691
G1 X125.489 Y75.222 E0.66458
G1 X126.025 Y75.222 E0.01691
G1 X140.393 Y89.590 E0.64067
G1 X140.393 Y89.054 E0.01691
G1 X126.561 Y75.222 E0.61676
G1 X127.098 Y75.222 E0.01691
G1 X140.393 Y88.518 E0.59285
G1 X140.393 Y87.981 E0.01691
G1 X127.634 Y75.222 E0.56895
G1 X128.170 Y75.222 E0.01691
G1 X140.393 Y87.445 E0.54504
G1 X140.393 Y86.909 E0.01691
G1 X128.706 Y75.222 E0.52113
G1 X129.242 Y75.222 E0.01691
G1 X140.393 Y86.373 E0.49722
G1 X140.393 Y85.836 E0.01691
G1 X129.779 Y75.222 E0.47331
G1 X130.315 Y75.221 E0.01691
G1 X140.393 Y85.300 E0.44940
M73 Q5 S34
M73 P5 R34
G1 X140.393 Y84.764 E0.01691
G1 X130.851 Y75.221 E0.42550
G1 X131.387 Y75.221 E0.01691
G1 X140.393 Y84.228 E0.40159
G1 X140.393 Y83.691 E0.01691
G1 X131.923 Y75.221 E0.37768
G1 X132.459 Y75.221 E0.01691
G1 X140.393 Y83.155 E0.35377
G1 X140.393 Y82.619 E0.01691
G1 X132.996 Y75.221 E0.32986
G1 X133.532 Y75.221 E0.01691
G1 X140.393 Y82.083 E0.30595
G1 X140.393 Y81.546 E0.01691
G1 X134.068 Y75.221 E0.28205
G1 X134.604 Y75.221 E0.01691
G1 X140.393 Y81.010 E0.25814
G1 X140.393 Y80.474 E0.01691
G1 X135.140 Y75.221 E0.23423
G1 X135.677 Y75.221 E0.01691
G1 X140.393 Y79.938 E0.21032
G1 X140.393 Y79.401 E0.01691
G1 X136.213 Y75.221 E0.18641
G1 X136.749 Y75.221 E0.01691
G1 X140.393 Y78.865 E0.16250
G1 X140.393 Y78.329 E0.01691
G1 X137.285 Y75.221 E0.13859
G1 X137.821 Y75.221 E0.01691
G1 X140.393 Y77.793 E0.11469
G1 X140.393 Y77.256 E0.01691
G1 X138.358 Y75.220 E0.09078
G1 X138.894 Y75.220 E0.01691
G1 X140.393 Y76.720 E0.06687
G1 X140.393 Y76.184 E0.01691
G1 X139.430 Y75.220 E0.04296
G1 X139.966 Y75.220 E0.01691
G1 X140.563 Y75.817 E0.02662
M106 S255
;BEFORE_LAYER_CHANGE
G92 E0.0
;0.35


G1 F8640
G1 X139.966 Y75.220 E-0.19494
G1 X139.430 Y75.220 E-0.12381
G1 X140.393 Y76.184 E-0.31462
G1 X140.393 Y76.720 E-0.12382
G1 X140.385 Y76.711 E-0.00281
G1 E-0.04000 F2100.00000
G1 Z0.800 F10800.000
;AFTER_LAYER_CHANGE
;0.35
M104 S210 ; set temperature
G1 X147.532 Y67.254
G1 Z0.350
G1 E0.80000 F2100.00000
G1 F3000
G1 X148.011 Y67.871 E0.01890
G1 X148.194 Y68.356 E0.01252
G1 X148.259 Y68.866 E0.01243
G1 X148.258 Y105.175 E0.87814
G1 X148.168 Y105.748 E0.01401
G1 X147.929 Y106.279 E0.01410
G1 X147.558 Y106.729 E0.01410
G1 X147.081 Y107.065 E0.01410
G1 X146.633 Y107.239 E0.01164
G1 X146.156 Y107.311 E0.01164
G1 X140.791 Y107.313 E0.12976
G1 X131.686 Y107.142 E0.22026
G1 X131.159 Y107.064 E0.01287
G1 X110.436 Y97.658 E0.55041
G1 X109.859 Y97.257 E0.01699
G1 X109.438 Y96.695 E0.01699
G1 X109.254 Y96.207 E0.01261
G1 X109.190 Y95.693 E0.01252
G1 X109.190 Y61.752 E0.82087
G1 X109.283 Y61.129 E0.01524
G1 X109.509 Y60.623 E0.01340
G1 X109.854 Y60.189 E0.01340
G1 X112.224 Y57.943 E0.07897
G1 X112.994 Y57.520 E0.02125
G1 X113.617 Y57.423 E0.01524
G1 X121.247 Y57.423 E0.18455
G1 X122.003 Y57.557 E0.01855
G1 X146.867 Y66.844 E0.64191
G1 X147.481 Y67.222 E0.01745
; PURGING FINISHED
G1 F8640
G1 X148.011 Y67.871 E-0.19350
G1 X148.194 Y68.356 E-0.11955
G1 X148.259 Y68.866 E-0.11872
G1 X148.259 Y70.287 E-0.32823
G1 E-0.04000 F2100.00000
G1 Z0.950 F10800.000
G1 X140.825 Y74.708
G1 Z0.350
G1 E0.80000 F2100.00000
M204 S800
G1 F2700
G1 X140.895 Y74.778 E0.00257
G1 X140.940 Y74.865 E0.00256
G1 X140.963 Y75.013 E0.00390
G1 X140.963 Y90.913 E0.41427
G1 X140.940 Y91.059 E0.00385
G1 X140.895 Y91.147 E0.00259
G1 X140.824 Y91.218 E0.00260
G1 X140.738 Y91.262 E0.00254
G1 X140.592 Y91.285 E0.00385
G1 X115.689 Y91.285 E0.64886
G1 X115.543 Y91.262 E0.00385
G1 X115.456 Y91.218 E0.00254
G1 X115.386 Y91.147 E0.00259
G1 X115.341 Y91.059 E0.00260
G1 X115.318 Y90.912 E0.00387
G1 X115.318 Y75.014 E0.41424
G1 X115.341 Y74.864 E0.00395
G1 X115.385 Y74.779 E0.00249
G1 X115.455 Y74.708 E0.00260
G1 X115.543 Y74.664 E0.00257
G1 X115.690 Y74.640 E0.00389
G1 X140.590 Y74.640 E0.64879
G1 X140.772 Y74.681 E0.00484
M204 S1000
G1 X140.960 Y74.308 F10800.000
M204 S800
G1 F2100
G1 X141.074 Y74.366 E0.00332
G1 X141.237 Y74.529 E0.00601
G1 X141.342 Y74.734 E0.00602
G1 X141.381 Y74.981 E0.00650
G1 X141.381 Y90.946 E0.41597
G1 X141.342 Y91.190 E0.00644
G1 X141.237 Y91.396 E0.00603
G1 X141.074 Y91.560 E0.00603
G1 X140.868 Y91.665 E0.00601
G1 X140.624 Y91.703 E0.00644
