; generated by Slic3r Prusa Edition 1.41.2+ on 2019-02-03 at 14:09:11

; 

; external perimeters extrusion width = 0.45mm
; perimeters extrusion width = 0.45mm
; infill extrusion width = 0.45mm
; solid infill extrusion width = 0.45mm
; top infill extrusion width = 0.40mm
; first layer extrusion width = 0.42mm

M73 P0 R161
M73 Q0 S162
M201 X1000 Y1000 Z1000 E5000 ; sets maximum accelerations, mm/sec^2
M203 X200 Y200 Z12 E120 ; sets maximum feedrates, mm/sec
M204 P1250 R1250 T1250 ; sets acceleration (P, T) and retract acceleration (R), mm/sec^2
M205 X8.00 Y8.00 Z0.40 E1.50 ; sets the jerk limits, mm/sec
M205 S0 T0 ; sets the minimum extruding and travel feed rate, mm/sec
M107
M115 U3.5.0 ; tell printer latest fw version
M83  ; extruder relative mode
M104 S215 ; set extruder temp
M140 S60 ; set bed temp
M190 S60 ; wait for bed temp
M109 S215 ; wait for extruder temp
G28 W ; home all without mesh bed level
G80 ; mesh bed leveling
G1 Y-3.0 F1000.0 ; go outside print area
G92 E0.0
G1 X60.0 E9.0  F1000.0 ; intro line
M73 Q0 S161
M73 P0 R161
G1 X100.0 E12.5  F1000.0 ; intro line
G92 E0.0
M221 S95
M900 K30; Filament gcode
G21 ; set units to millimeters
G90 ; use absolute coordinates
M83 ; use relative distances for extrusion
;BEFORE_LAYER_CHANGE
G92 E0.0
;0.2


G1 E-0.80000 F2100.00000
G1 Z0.600 F10800.000
;AFTER_LAYER_CHANGE
;0.2
G1 X68.747 Y141.875
G1 Z0.200
G1 E0.80000 F2100.00000
M204 S1000
G1 F1200
G1 X68.081 Y141.287 E0.02788
G1 X67.759 Y140.675 E0.02168
G1 X67.643 Y139.989 E0.02179
G1 X67.643 Y74.227 E2.06192
G1 X67.704 Y73.731 E0.01567
G1 X67.877 Y73.259 E0.01578
G1 X68.153 Y72.838 E0.01578
G1 X68.518 Y72.492 E0.01578
G1 X68.996 Y72.219 E0.01726
G1 X69.527 Y72.075 E0.01726
G1 X142.613 Y62.066 E2.31293
G1 X173.788 Y62.055 E0.97746
G1 X174.522 Y62.184 E0.02338
G1 X175.956 Y62.730 E0.04811
G1 X176.407 Y62.991 E0.01635
G1 X176.763 Y63.326 E0.01532
G1 X177.035 Y63.732 E0.01532
G1 X177.211 Y64.188 E0.01532
G1 X177.281 Y64.675 E0.01544
G1 X177.282 Y146.764 E2.57383
G1 X177.220 Y147.260 E0.01567
G1 X177.047 Y147.728 E0.01567
G1 X176.773 Y148.146 E0.01567
G1 X176.408 Y148.492 E0.01578
G1 X175.782 Y148.819 E0.02213
G1 X174.086 Y149.354 E0.05577
G1 X173.566 Y149.432 E0.01646
G1 X142.684 Y149.428 E0.96830
G1 X69.593 Y142.149 E2.30304
G1 X68.804 Y141.893 E0.02600
; PURGING FINISHED
G1 F8640
G1 X68.081 Y141.287 E-0.21810
G1 X67.759 Y140.675 E-0.15967
G1 X67.643 Y139.989 E-0.16050
G1 X67.643 Y139.029 E-0.22173
G1 E-0.04000 F2100.00000
G1 Z0.800 F10800.000
G1 X162.715 Y134.584
G1 Z0.200
G1 E0.80000 F2100.00000
G1 F1200
G1 X164.834 Y132.470 E0.09384
G1 X166.942 Y134.584 E0.09359
G1 X164.834 Y136.698 E0.09359
G1 X162.757 Y134.626 E0.09196
G1 X163.248 Y134.584 F10800.000
G1 F1200
G1 X164.833 Y133.004 E0.07017
G1 X166.409 Y134.584 E0.06998
G1 X164.833 Y136.164 E0.06998
G1 X163.291 Y134.626 E0.06828
G1 X163.782 Y134.584 F10800.000
G1 F1200
G1 X164.832 Y133.537 E0.04649
G1 X165.876 Y134.584 E0.04636
G1 X164.832 Y135.631 E0.04636
G1 X163.825 Y134.626 E0.04461
G1 X163.436 Y134.384 F10800.000
G1 F8640
G1 X164.832 Y133.537 E-0.34259
G1 X165.876 Y134.584 E-0.34143
G1 X165.644 Y134.817 E-0.07598
G1 E-0.04000 F2100.00000
G1 Z0.800 F10800.000
G1 X156.942 Y134.584
G1 Z0.200
G1 E0.80000 F2100.00000
G1 F1200
G1 X154.834 Y136.698 E0.09359
G1 X152.715 Y134.584 E0.09384
G1 X154.834 Y132.470 E0.09384
G1 X156.899 Y134.542 E0.09171
G1 X156.409 Y134.584 F10800.000
G1 F1200
G1 X154.833 Y136.164 E0.06998
G1 X153.248 Y134.584 E0.07017
G1 X154.833 Y133.004 E0.07017
G1 X156.367 Y134.542 E0.06810
G1 X155.876 Y134.584 F10800.000
G1 F1200
G1 X154.832 Y135.631 E0.04636
G1 X153.782 Y134.584 E0.04649
G1 X154.832 Y133.537 E0.04649
G1 X155.834 Y134.542 E0.04448
G1 X156.223 Y134.784 F10800.000
G1 F8640
G1 X154.832 Y135.631 E-0.34175
G1 X153.782 Y134.584 E-0.34235
G1 X154.015 Y134.352 E-0.07590
G1 E-0.04000 F2100.00000
G1 Z0.800 F10800.000
G1 X146.809 Y125.541
G1 Z0.200
G1 E0.80000 F2100.00000
G1 F1200
G1 X144.834 Y127.522 E0.08772
G1 X142.715 Y125.408 E0.09384
G1 X144.834 Y123.294 E0.09384
G1 X146.942 Y125.408 E0.09359
G1 X146.852 Y125.498 E0.00400
G1 X146.409 Y125.408 F10800.000
G1 F1200
G1 X144.833 Y126.988 E0.06998
G1 X143.249 Y125.408 E0.07016
G1 X144.833 Y123.828 E0.07016
G1 X146.367 Y125.366 E0.06810
G1 X145.876 Y125.408 F10800.000
G1 F1200
G1 X144.832 Y126.455 E0.04636
G1 X143.782 Y125.408 E0.04649
G1 X144.832 Y124.361 E0.04649
G1 X145.834 Y125.366 E0.04448
G1 X146.223 Y125.608 F10800.000
G1 F8640
G1 X144.832 Y126.455 E-0.34175
G1 X143.782 Y125.408 E-0.34234
G1 X144.015 Y125.176 E-0.07590
G1 E-0.04000 F2100.00000
G1 Z0.800 F10800.000
G1 X136.942 Y125.408
G1 Z0.200
G1 E0.80000 F2100.00000
G1 F1200
G1 X134.834 Y127.522 E0.09359
G1 X132.715 Y125.408 E0.09384
G1 X134.834 Y123.294 E0.09384
G1 X136.899 Y125.366 E0.09171
G1 X136.409 Y125.408 F10800.000
G1 F1200
G1 X134.833 Y126.988 E0.06998
G1 X133.248 Y125.408 E0.07017
G1 X134.833 Y123.828 E0.07017
G1 X136.367 Y125.366 E0.06810
G1 X135.876 Y125.408 F10800.000
G1 F1200
G1 X134.832 Y126.455 E0.04636
G1 X133.782 Y125.408 E0.04649
G1 X134.832 Y124.361 E0.04649
G1 X135.834 Y125.366 E0.04448
G1 X136.223 Y125.608 F10800.000
G1 F8640
G1 X134.832 Y126.455 E-0.34175
G1 X133.782 Y125.408 E-0.34235
G1 X134.015 Y125.176 E-0.07590
G1 E-0.04000 F2100.00000
G1 Z0.800 F10800.000
G1 X122.715 Y134.584
G1 Z0.200
G1 E0.80000 F2100.00000
G1 F1200
G1 X124.834 Y132.470 E0.09384
G1 X126.942 Y134.584 E0.09359
G1 X124.834 Y136.698 E0.09359
G1 X122.757 Y134.626 E0.09196
G1 X123.248 Y134.584 F10800.000
G1 F1200
G1 X124.833 Y133.004 E0.07017
G1 X126.409 Y134.584 E0.06998
G1 X124.833 Y136.164 E0.06998
G1 X123.291 Y134.626 E0.06828
G1 X123.782 Y134.584 F10800.000
G1 F1200
G1 X124.832 Y133.537 E0.04649
G1 X125.876 Y134.584 E0.04636
G1 X124.832 Y135.631 E0.04636
G1 X123.825 Y134.626 E0.04461
G1 X123.436 Y134.384 F10800.000
G1 F8640
G1 X124.832 Y133.537 E-0.34259
G1 X125.876 Y134.584 E-0.34143
G1 X125.644 Y134.817 E-0.07598
G1 E-0.04000 F2100.00000
G1 Z0.800 F10800.000
G1 X116.945 Y134.584
G1 Z0.200
G1 E0.80000 F2100.00000
G1 F1200
G1 X114.833 Y136.697 E0.09368
G1 X112.715 Y134.584 E0.09380
G1 X114.833 Y132.471 E0.09380
G1 X116.903 Y134.542 E0.09180
G1 X116.412 Y134.584 F10800.000
G1 F1200
G1 X114.832 Y136.164 E0.07005
G1 X113.248 Y134.584 E0.07014
G1 X114.832 Y133.004 E0.07014
G1 X116.370 Y134.542 E0.06817
G1 X115.879 Y134.584 F10800.000
G1 F1200
G1 X114.832 Y135.631 E0.04642
G1 X113.782 Y134.584 E0.04648
G1 X114.832 Y133.537 E0.04648
G1 X115.836 Y134.542 E0.04453
G1 X116.225 Y134.784 F10800.000
G1 F8640
G1 X114.832 Y135.631 E-0.34210
G1 X113.782 Y134.584 E-0.34228
G1 X114.014 Y134.353 E-0.07561
G1 E-0.04000 F2100.00000
G1 Z0.800 F10800.000
G1 X106.824 Y125.529
G1 Z0.200
G1 E0.80000 F2100.00000
G1 F1200
G1 X104.833 Y127.521 E0.08830
G1 X102.715 Y125.408 E0.09380
G1 X104.833 Y123.295 E0.09380
G1 X106.945 Y125.408 E0.09368
G1 X106.867 Y125.487 E0.00350
G1 X106.412 Y125.408 F10800.000
G1 F1200
G1 X104.832 Y126.988 E0.07005
G1 X103.249 Y125.408 E0.07014
G1 X104.832 Y123.828 E0.07014
G1 X106.370 Y125.366 E0.06817
G1 X105.879 Y125.408 F10800.000
G1 F1200
G1 X104.832 Y126.455 E0.04642
G1 X103.782 Y125.408 E0.04648
G1 X104.832 Y124.361 E0.04648
G1 X105.836 Y125.366 E0.04453
G1 X106.225 Y125.608 F10800.000
G1 F8640
G1 X104.832 Y126.455 E-0.34210
G1 X103.782 Y125.408 E-0.34228
G1 X104.014 Y125.177 E-0.07562
G1 E-0.04000 F2100.00000
G1 Z0.800 F10800.000
G1 X96.945 Y125.408
G1 Z0.200
G1 E0.80000 F2100.00000
G1 F1200
G1 X94.833 Y127.521 E0.09368
G1 X92.715 Y125.408 E0.09380
G1 X94.833 Y123.295 E0.09380
G1 X96.903 Y125.366 E0.09180
G1 X96.412 Y125.408 F10800.000
G1 F1200
G1 X94.832 Y126.988 E0.07005
G1 X93.249 Y125.408 E0.07014
G1 X94.832 Y123.828 E0.07014
G1 X96.370 Y125.366 E0.06817
G1 X95.879 Y125.408 F10800.000
G1 F1200
G1 X94.832 Y126.455 E0.04642
G1 X93.782 Y125.408 E0.04648
G1 X94.832 Y124.361 E0.04648
G1 X95.836 Y125.366 E0.04453
G1 X96.225 Y125.608 F10800.000
G1 F8640
G1 X94.832 Y126.455 E-0.34210
G1 X93.782 Y125.408 E-0.34228
G1 X94.014 Y125.177 E-0.07562
G1 E-0.04000 F2100.00000
G1 Z0.800 F10800.000
G1 X82.715 Y134.584
G1 Z0.200
G1 E0.80000 F2100.00000
G1 F1200
G1 X84.833 Y132.471 E0.09380
G1 X86.945 Y134.584 E0.09368
G1 X84.833 Y136.697 E0.09368
G1 X82.757 Y134.626 E0.09192
G1 X83.248 Y134.584 F10800.000
G1 F1200
G1 X84.832 Y133.004 E0.07014
G1 X86.412 Y134.584 E0.07005
G1 X84.832 Y136.164 E0.07005
G1 X83.291 Y134.626 E0.06826
G1 X83.782 Y134.584 F10800.000
G1 F1200
G1 X84.832 Y133.537 E0.04648
G1 X85.879 Y134.584 E0.04642
G1 X84.832 Y135.631 E0.04642
G1 X83.825 Y134.626 E0.04460
G1 X83.436 Y134.384 F10800.000
G1 F8640
G1 X84.832 Y133.537 E-0.34252
G1 X85.879 Y134.584 E-0.34182
G1 X85.647 Y134.816 E-0.07565
G1 E-0.04000 F2100.00000
G1 Z0.800 F10800.000
G1 X76.945 Y134.584
G1 Z0.200
G1 E0.80000 F2100.00000
G1 F1200
G1 X74.833 Y136.697 E0.09368
G1 X72.715 Y134.584 E0.09380
G1 X74.833 Y132.471 E0.09380
G1 X76.903 Y134.542 E0.09180
G1 X76.412 Y134.584 F10800.000
G1 F1200
G1 X74.832 Y136.164 E0.07005
G1 X73.248 Y134.584 E0.07014
G1 X74.832 Y133.004 E0.07014
G1 X76.370 Y134.542 E0.06817
G1 X75.879 Y134.584 F10800.000
G1 F1200
G1 X74.832 Y135.631 E0.04642
G1 X73.782 Y134.584 E0.04648
G1 X74.832 Y133.537 E0.04648
G1 X75.836 Y134.542 E0.04453
G1 X76.225 Y134.784 F10800.000
G1 F8640
G1 X74.832 Y135.631 E-0.34210
G1 X73.782 Y134.584 E-0.34228
G1 X74.014 Y134.353 E-0.07562
G1 E-0.04000 F2100.00000
G1 Z0.800 F10800.000
G1 X74.833 Y86.691
G1 Z0.200
G1 E0.80000 F2100.00000
G1 F1200
G1 X72.715 Y84.578 E0.09380
G1 X74.833 Y82.465 E0.09380
G1 X76.945 Y84.578 E0.09368
G1 X74.875 Y86.648 E0.09180
G1 X74.832 Y86.158 F10800.000
G1 F1200
G1 X73.248 Y84.578 E0.07014
G1 X74.832 Y82.998 E0.07014
G1 X76.412 Y84.578 E0.07005
G1 X74.875 Y86.115 E0.06817
G1 X74.832 Y85.625 F10800.000
G1 F1200
G1 X73.782 Y84.578 E0.04648
G1 X74.832 Y83.531 E0.04648
G1 X75.879 Y84.578 E0.04642
G1 X74.874 Y85.582 E0.04453
G1 X74.632 Y85.971 F10800.000
G1 F8640
G1 X73.782 Y84.578 E-0.34258
G1 X74.832 Y83.531 E-0.34228
G1 X75.062 Y83.761 E-0.07514
G1 E-0.04000 F2100.00000
G1 Z0.800 F10800.000
G1 X82.715 Y84.578
G1 Z0.200
G1 E0.80000 F2100.00000
G1 F1200
G1 X84.833 Y82.465 E0.09380
G1 X86.945 Y84.578 E0.09368
G1 X84.833 Y86.691 E0.09368
G1 X82.757 Y84.620 E0.09192
G1 X83.248 Y84.578 F10800.000
G1 F1200
G1 X84.832 Y82.998 E0.07014
G1 X86.412 Y84.578 E0.07005
G1 X84.832 Y86.158 E0.07005
G1 X83.291 Y84.620 E0.06826
G1 X83.782 Y84.578 F10800.000
G1 F1200
G1 X84.832 Y83.531 E0.04648
G1 X85.879 Y84.578 E0.04642
G1 X84.832 Y85.625 E0.04642
G1 X83.825 Y84.620 E0.04460
G1 X83.436 Y84.378 F10800.000
G1 F8640
G1 X84.832 Y83.531 E-0.34252
G1 X85.879 Y84.578 E-0.34182
G1 X85.647 Y84.810 E-0.07565
G1 E-0.04000 F2100.00000
G1 Z0.800 F10800.000
G1 X92.715 Y75.402
G1 Z0.200
G1 E0.80000 F2100.00000
G1 F1200
G1 X94.833 Y73.289 E0.09380
G1 X96.945 Y75.402 E0.09368
G1 X94.833 Y77.515 E0.09368
G1 X92.757 Y75.444 E0.09192
G1 X93.249 Y75.402 F10800.000
G1 F1200
G1 X94.832 Y73.822 E0.07014
G1 X96.412 Y75.402 E0.07005
G1 X94.832 Y76.982 E0.07005
G1 X93.291 Y75.444 E0.06826
G1 X93.782 Y75.402 F10800.000
G1 F1200
G1 X94.832 Y74.355 E0.04648
G1 X95.879 Y75.402 E0.04642
G1 X94.832 Y76.449 E0.04642
G1 X93.825 Y75.444 E0.04460
G1 X93.436 Y75.202 F10800.000
G1 F8640
G1 X94.832 Y74.355 E-0.34252
G1 X95.879 Y75.402 E-0.34182
G1 X95.647 Y75.634 E-0.07565
G1 E-0.04000 F2100.00000
G1 Z0.800 F10800.000
G1 X102.715 Y75.402
G1 Z0.200
G1 E0.80000 F2100.00000
G1 F1200
G1 X104.833 Y73.289 E0.09380
G1 X106.945 Y75.402 E0.09368
G1 X104.833 Y77.515 E0.09368
G1 X102.757 Y75.444 E0.09192
G1 X103.249 Y75.402 F10800.000
G1 F1200
G1 X104.832 Y73.822 E0.07014
G1 X106.412 Y75.402 E0.07005
G1 X104.832 Y76.982 E0.07005
G1 X103.291 Y75.444 E0.06826
G1 X103.782 Y75.402 F10800.000
G1 F1200
G1 X104.832 Y74.355 E0.04648
G1 X105.879 Y75.402 E0.04642
G1 X104.832 Y76.449 E0.04642
G1 X103.825 Y75.444 E0.04460
G1 X103.436 Y75.202 F10800.000
G1 F8640
G1 X104.832 Y74.355 E-0.34252
G1 X105.879 Y75.402 E-0.34182
G1 X105.647 Y75.634 E-0.07565
G1 E-0.04000 F2100.00000
G1 Z0.800 F10800.000
G1 X112.825 Y84.468
G1 Z0.200
G1 E0.80000 F2100.00000
G1 F1200
G1 X114.833 Y82.465 E0.08893
G1 X116.945 Y84.578 E0.09368
G1 X114.833 Y86.691 E0.09368
G1 X112.715 Y84.578 E0.09380
G1 X112.782 Y84.511 E0.00299
G1 X113.248 Y84.578 F10800.000
G1 F1200
G1 X114.832 Y82.998 E0.07014
G1 X116.412 Y84.578 E0.07005
G1 X114.832 Y86.158 E0.07005
G1 X113.291 Y84.620 E0.06826
G1 X113.782 Y84.578 F10800.000
G1 F1200
G1 X114.832 Y83.531 E0.04648
G1 X115.879 Y84.578 E0.04642
G1 X114.832 Y85.625 E0.04642
G1 X113.825 Y84.620 E0.04460
G1 X113.436 Y84.378 F10800.000
G1 F8640
G1 X114.832 Y83.531 E-0.34253
G1 X115.879 Y84.578 E-0.34182
G1 X115.647 Y84.810 E-0.07565
G1 E-0.04000 F2100.00000
G1 Z0.800 F10800.000
G1 X122.715 Y84.578
G1 Z0.200
G1 E0.80000 F2100.00000
G1 F1200
G1 X124.834 Y82.464 E0.09384
G1 X126.942 Y84.578 E0.09359
G1 X124.834 Y86.692 E0.09359
G1 X122.757 Y84.620 E0.09196
G1 X123.248 Y84.578 F10800.000
G1 F1200
G1 X124.833 Y82.998 E0.07017
G1 X126.409 Y84.578 E0.06998
G1 X124.833 Y86.158 E0.06998
G1 X123.291 Y84.620 E0.06828
G1 X123.782 Y84.578 F10800.000
G1 F1200
G1 X124.832 Y83.531 E0.04649
G1 X125.876 Y84.578 E0.04636
G1 X124.832 Y85.625 E0.04636
G1 X123.825 Y84.620 E0.04461
G1 X123.436 Y84.378 F10800.000
G1 F8640
G1 X124.832 Y83.531 E-0.34259
G1 X125.876 Y84.578 E-0.34143
G1 X125.644 Y84.811 E-0.07598
G1 E-0.04000 F2100.00000
G1 Z0.800 F10800.000
G1 X132.715 Y75.402
G1 Z0.200
G1 E0.80000 F2100.00000
G1 F1200
G1 X134.834 Y73.288 E0.09384
G1 X136.942 Y75.402 E0.09359
G1 X134.834 Y77.516 E0.09359
G1 X132.757 Y75.444 E0.09196
G1 X133.248 Y75.402 F10800.000
G1 F1200
G1 X134.833 Y73.822 E0.07017
G1 X136.409 Y75.402 E0.06998
G1 X134.833 Y76.982 E0.06998
G1 X133.291 Y75.444 E0.06828
G1 X133.782 Y75.402 F10800.000
G1 F1200
G1 X134.832 Y74.355 E0.04649
G1 X135.876 Y75.402 E0.04636
G1 X134.832 Y76.449 E0.04636
G1 X133.825 Y75.444 E0.04461
G1 X133.436 Y75.202 F10800.000
G1 F8640
G1 X134.832 Y74.355 E-0.34259
G1 X135.876 Y75.402 E-0.34143
G1 X135.644 Y75.635 E-0.07598
G1 E-0.04000 F2100.00000
G1 Z0.800 F10800.000
G1 X142.715 Y75.402
G1 Z0.200
G1 E0.80000 F2100.00000
G1 F1200
G1 X144.834 Y73.288 E0.09384
G1 X146.942 Y75.402 E0.09359
G1 X144.834 Y77.516 E0.09359
G1 X142.757 Y75.444 E0.09196
G1 X143.249 Y75.402 F10800.000
G1 F1200
G1 X144.833 Y73.822 E0.07016
G1 X146.409 Y75.402 E0.06998
G1 X144.833 Y76.982 E0.06998
G1 X143.291 Y75.444 E0.06828
G1 X143.782 Y75.402 F10800.000
G1 F1200
G1 X144.832 Y74.355 E0.04649
G1 X145.876 Y75.402 E0.04636
G1 X144.832 Y76.449 E0.04636
G1 X143.825 Y75.444 E0.04461
G1 X143.436 Y75.202 F10800.000
G1 F8640
G1 X144.832 Y74.355 E-0.34259
G1 X145.876 Y75.402 E-0.34143
M73 Q0 S160
G1 X145.644 Y75.635 E-0.07598
G1 E-0.04000 F2100.00000
G1 Z0.800 F10800.000
G1 X152.825 Y84.468
G1 Z0.200
G1 E0.80000 F2100.00000
G1 F1200
G1 X154.834 Y82.464 E0.08897
G1 X156.942 Y84.578 E0.09359
G1 X154.834 Y86.692 E0.09359
G1 X152.715 Y84.578 E0.09384
G1 X152.782 Y84.511 E0.00300
G1 X153.248 Y84.578 F10800.000
G1 F1200
G1 X154.833 Y82.998 E0.07017
M73 P0 R160
G1 X156.409 Y84.578 E0.06998
G1 X154.833 Y86.158 E0.06998
G1 X153.291 Y84.620 E0.06828
G1 X153.782 Y84.578 F10800.000
G1 F1200
G1 X154.832 Y83.531 E0.04649
G1 X155.876 Y84.578 E0.04636
G1 X154.832 Y85.625 E0.04636
G1 X153.825 Y84.620 E0.04461
G1 X153.436 Y84.378 F10800.000
G1 F8640
G1 X154.832 Y83.531 E-0.34259
G1 X155.876 Y84.578 E-0.34143
G1 X155.644 Y84.811 E-0.07598
G1 E-0.04000 F2100.00000
G1 Z0.800 F10800.000
G1 X162.715 Y84.578
G1 Z0.200
G1 E0.80000 F2100.00000
G1 F1200
G1 X164.834 Y82.464 E0.09384
G1 X166.942 Y84.578 E0.09359
G1 X164.834 Y86.692 E0.09359
G1 X162.757 Y84.620 E0.09196
G1 X163.248 Y84.578 F10800.000
G1 F1200
G1 X164.833 Y82.998 E0.07017
G1 X166.409 Y84.578 E0.06998
G1 X164.833 Y86.158 E0.06998
G1 X163.291 Y84.620 E0.06828
G1 X163.782 Y84.578 F10800.000
G1 F1200
G1 X164.832 Y83.531 E0.04649
G1 X165.876 Y84.578 E0.04636
G1 X164.832 Y85.625 E0.04636
G1 X163.825 Y84.620 E0.04461
G1 X163.436 Y84.378 F10800.000
G1 F8640
G1 X164.832 Y83.531 E-0.34259
G1 X165.876 Y84.578 E-0.34143
G1 X165.644 Y84.811 E-0.07598
